One-Shot Anime/Ramayana - The Legend Of Prince Rama (Color Graded).cube
LUT_3D_SIZE 5
0.085999 0.11072 0.043283
0.29945 0.1161 0
0.48989 0.11777 0.010496
0.71364 0.1341 0.010016
1 0.15854 0.0083326
0.096499 0.20814 0.031677
0.29434 0.20921 0
0.49574 0.19452 0.01594
0.72269 0.21323 0.013229
1 0.2485 0.012586
0.13018 0.35398 0.031475
0.28856 0.38365 0.011343
0.47976 0.38146 0.035626
0.75181 0.39524 0.02825
1 0.44311 0.032216
0.16597 0.5397 0.034728
0.30976 0.57654 0.031297
0.4777 0.60229 0.062596
0.79584 0.62739 0.063727
1 0.66564 0.047082
0.19599 0.75621 0.029384
0.35453 0.78803 0.042118
0.52133 0.84241 0.084489
0.82343 0.87292 0.096094
1 0.87076 0.043071
0.073997 0.10698 0.21983
0.25905 0.11378 0.1931
0.50705 0.12269 0.16142
0.71258 0.14939 0.18379
1 0.17446 0.19476
0.085324 0.19386 0.21918
0.26159 0.20534 0.19984
0.51688 0.20275 0.16531
0.72401 0.23875 0.19863
1 0.26701 0.20516
0.12086 0.34698 0.21532
0.27419 0.40204 0.19463
0.50572 0.40201 0.18684
0.74914 0.41749 0.22939
1 0.45183 0.21254
0.15992 0.5438 0.21551
0.31637 0.58024 0.20732
0.50842 0.62933 0.23515
0.78585 0.65375 0.26899
1 0.6666 0.22249
0.19261 0.74367 0.20875
0.37997 0.79326 0.2143
0.55776 0.84964 0.25724
0.78967 0.86317 0.26344
1 0.86454 0.22115
0.10664 0.13766 0.43696
0.24156 0.15851 0.45986
0.47523 0.16941 0.47069
0.76313 0.20346 0.45902
1 0.19974 0.46146
0.12194 0.20806 0.44319
0.24886 0.23129 0.47527
0.48133 0.24806 0.48855
0.7703 0.28145 0.4696
1 0.28008 0.47202
0.15389 0.37079 0.45158
0.28051 0.41281 0.4947
0.49137 0.44567 0.51391
0.78412 0.45355 0.4821
1 0.4727 0.48815
0.19415 0.54832 0.46826
0.34992 0.59655 0.51258
0.518 0.65934 0.51653
0.78785 0.67193 0.48753
1 0.66699 0.48632
0.24199 0.78032 0.50081
0.40092 0.81977 0.52817
0.55961 0.84405 0.51339
0.77943 0.85488 0.49913
1 0.83451 0.47521
0.14844 0.14132 0.84704
0.30982 0.18739 0.88395
0.50454 0.18414 0.89446
0.70667 0.19996 0.91557
0.99797 0.20629 0.85137
0.17268 0.21512 0.85653
0.31866 0.26674 0.89087
0.50466 0.26917 0.89397
0.71327 0.28255 0.91391
0.99743 0.28723 0.84493
0.21731 0.40347 0.88365
0.34356 0.4331 0.89791
0.50561 0.44381 0.91389
0.71132 0.44141 0.91242
1 0.44757 0.83822
0.24265 0.61002 0.91436
0.37041 0.63141 0.91382
0.51175 0.65591 0.92619
0.68339 0.65519 0.9258
1 0.65598 0.8406
0.25455 0.78523 0.92909
0.38977 0.79725 0.92781
0.53199 0.81481 0.90806
0.71162 0.85082 0.92324
1 0.90336 0.88744
0.17527 0.16886 1
0.3106 0.19631 1
0.51331 0.1917 1
0.71334 0.18504 1
0.95565 0.19559 1
0.1923 0.24052 1
0.31857 0.28179 1
0.50621 0.28459 1
0.71419 0.27218 1
0.95793 0.27999 1
0.21989 0.4079 1
0.35082 0.43222 1
0.49347 0.44717 1
0.70867 0.44605 1
0.97897 0.47373 1
0.23586 0.62213 1
0.3636 0.62744 1
0.51389 0.64412 1
0.72581 0.67348 1
1 0.72838 1
0.24017 0.78799 1
0.37985 0.79468 1
0.55323 0.83066 1
0.78614 0.89906 1
1 1 1
