One-Shot Anime/Ramayana - The Legend Of Prince Rama (Color Graded) light.cube
LUT_3D_SIZE 33
0.17995 0.064327 0
0.20221 0.058916 0
0.22267 0.054071 0.0037231
0.24003 0.050313 0.0078388
0.25641 0.04744 0.010829
0.27256 0.045175 0.012974
0.29002 0.043346 0.01428
0.30779 0.041712 0.013196
0.32737 0.040684 0.009218
0.34849 0.04032 0.0023319
0.37143 0.040733 0
0.39665 0.042039 0
0.42289 0.043955 0
0.44886 0.046038 0
0.47428 0.048102 0
0.49991 0.050719 0
0.52722 0.054201 0
0.5583 0.05871 0
0.59443 0.064122 0.0063748
0.63535 0.070798 0.015412
0.68056 0.079706 0.023009
0.72784 0.089609 0.027196
0.77605 0.10051 0.027418
0.82449 0.112 0.022939
0.86761 0.1218 0.017436
0.90797 0.13102 0.010049
0.94708 0.13997 0.0011437
0.98632 0.14914 0
1 0.15652 0
1 0.16306 0
1 0.16913 0
1 0.17457 0
1 0.17943 0
0.16929 0.099498 0
0.19172 0.093218 0.0012549
0.21298 0.086999 0.0058093
0.23161 0.08183 0.0099978
0.24944 0.077522 0.013272
0.26691 0.074049 0.015
0.28467 0.070795 0.015358
0.30383 0.067823 0.013421
0.32482 0.065631 0.0088319
0.3472 0.064377 0.0019435
0.37149 0.064168 0
0.39805 0.065196 0
0.42498 0.066888 0
0.4511 0.068518 0
0.47694 0.070184 0
0.50353 0.072726 0
0.53187 0.077154 0
0.56366 0.083824 0
0.60011 0.092329 0.0060612
0.64206 0.10136 0.01481
0.68906 0.11141 0.022392
0.73793 0.12194 0.026099
0.7871 0.13265 0.025241
0.83482 0.14311 0.020596
0.87731 0.1521 0.015294
0.91762 0.161 0.0079484
0.95702 0.17022 0
0.99559 0.17986 0
1 0.18729 0
1 0.19406 0
1 0.19992 0
1 0.20492 0
1 0.20931 0
0.15807 0.1345 0
0.17972 0.12859 0.0033236
0.20127 0.12197 0.0081323
0.22059 0.1161 0.012148
0.23971 0.11052 0.01537
0.25798 0.10549 0.016441
0.27677 0.10048 0.015834
0.29756 0.095907 0.012928
0.32007 0.091887 0.0073568
0.34444 0.089063 0.00025649
0.37112 0.088116 0
0.39922 0.088513 0
0.42679 0.089438 0
0.45332 0.090912 0
0.4797 0.093204 0
0.50737 0.096498 0
0.53749 0.10142 0
0.57081 0.10927 0
0.6082 0.11982 0.0066905
0.65012 0.13155 0.01459
0.69804 0.14289 0.021384
0.74805 0.15388 0.023784
0.79759 0.16409 0.021537
0.84417 0.17307 0.017791
0.8868 0.18187 0.012555
0.92724 0.19105 0.0055702
0.96778 0.20143 0
1 0.21074 0
1 0.2183 0
1 0.2246 0
1 0.22965 0
1 0.23386 0
1 0.23757 0
0.14724 0.16844 0.0044263
0.16783 0.16325 0.0080371
0.1886 0.15767 0.01183
0.20783 0.15203 0.015296
0.22683 0.14581 0.018091
0.2451 0.1395 0.018173
0.26533 0.13277 0.016169
0.2882 0.12592 0.011978
0.31329 0.11998 0.005532
0.34048 0.11583 0
0.36981 0.11362 0
0.39944 0.11305 0
0.42791 0.11356 0
0.45554 0.11492 0
0.48323 0.11743 0
0.51204 0.12146 0
0.54352 0.12741 0
0.57882 0.13586 0.0013302
0.6176 0.14692 0.008099
0.6601 0.1599 0.015018
0.70764 0.17327 0.020138
0.75805 0.1842 0.020685
0.80745 0.19333 0.017505
0.85332 0.20136 0.014619
0.89674 0.2107 0.0093433
0.93765 0.22101 0.0028863
0.97865 0.23288 0
1 0.24178 0
1 0.24896 0
1 0.25429 0
1 0.2584 0
1 0.26183 0
1 0.26479 0
0.13452 0.20631 0.013631
0.15437 0.20106 0.017243
0.1743 0.1952 0.020553
0.19209 0.18939 0.02272
0.20957 0.18322 0.023537
0.2286 0.17679 0.022227
0.24997 0.16983 0.018464
0.27501 0.16201 0.012907
0.30343 0.15435 0.005492
0.33444 0.14812 0
0.36661 0.14413 0
0.39844 0.14207 0
0.42888 0.14172 0
0.45824 0.14302 0
0.4873 0.14568 0
0.51746 0.14978 0
0.55037 0.15583 0
0.58733 0.16405 0.0043027
0.62787 0.17481 0.010544
0.67167 0.18836 0.016213
0.71909 0.20265 0.019086
0.76898 0.21389 0.017683
0.81738 0.22266 0.014889
0.86423 0.23163 0.011628
0.90842 0.24253 0.0064929
0.95091 0.25532 0
0.98918 0.26699 0
1 0.27514 0
1 0.281 0
1 0.28509 0
1 0.28823 0
1 0.29107 0
1 0.29364 0
0.12077 0.24432 0.02305
0.13898 0.23853 0.026448
0.15826 0.2324 0.029147
0.17502 0.22653 0.030173
0.19293 0.22042 0.029646
0.21247 0.2139 0.026838
0.23466 0.20692 0.020876
0.26128 0.19914 0.013174
0.29214 0.19141 0.0043333
0.32632 0.18443 0
0.36172 0.17911 0
0.39627 0.17619 0
0.42912 0.17511 0
0.46067 0.17538 0
0.49153 0.17718 0
0.52322 0.18081 0
0.5576 0.1863 0.0018839
0.59596 0.19385 0.0076743
0.63847 0.20351 0.014333
0.6841 0.21576 0.019751
0.73205 0.22937 0.020907
0.78179 0.24164 0.017759
0.82948 0.25184 0.015538
0.87755 0.2639 0.011574
0.92242 0.27734 0.0064363
0.96521 0.292 0
0.99895 0.30185 0
1 0.30835 0
1 0.31251 0
1 0.31561 0
1 0.31823 0
1 0.32061 0
1 0.32281 0
0.10739 0.28227 0.033032
0.1243 0.27762 0.036359
0.1413 0.27205 0.038272
0.15807 0.26655 0.038358
0.17609 0.26069 0.03638
0.19627 0.25429 0.03197
0.21944 0.24741 0.023959
0.24773 0.2399 0.014007
0.28109 0.23269 0.0036128
0.31756 0.22675 0
0.35538 0.22213 0
0.39271 0.21886 0
0.42796 0.21646 0
0.4614 0.21495 0
0.49431 0.2146 0
0.52782 0.21612 0
0.56367 0.2199 0.0026007
0.60356 0.22576 0.0089692
0.64771 0.23382 0.016135
0.6952 0.24366 0.021205
0.74544 0.25585 0.021298
0.79622 0.26891 0.018766
0.84548 0.28276 0.016583
0.89434 0.29861 0.013009
0.93991 0.31566 0.0075283
0.97853 0.32951 0.00094871
1 0.33721 0
1 0.34236 0
1 0.34587 0
1 0.34864 0
1 0.35123 0
1 0.35373 0
1 0.35614 0
0.097484 0.3198 0.043468
0.11218 0.3163 0.046358
0.12782 0.31271 0.047754
0.14397 0.30911 0.047131
0.16159 0.30513 0.044276
0.18197 0.3004 0.038908
0.20628 0.29485 0.029926
0.2362 0.28896 0.018158
0.2717 0.28363 0.0057746
0.31027 0.27973 0
0.34963 0.27727 0
0.38853 0.27498 0
0.42503 0.27206 0
0.45946 0.2687 0
0.49394 0.26483 0
0.52965 0.26205 0
0.56781 0.26175 0.0013046
0.60938 0.26418 0.0087598
0.65517 0.26874 0.016171
0.70493 0.27572 0.020619
0.76071 0.28675 0.020441
0.81469 0.30159 0.019776
0.86644 0.31988 0.017775
0.91456 0.33841 0.014514
0.958 0.3547 0.0088012
0.98928 0.36403 0.0032987
1 0.36991 0
1 0.37418 0
1 0.37763 0
1 0.38093 0
1 0.38434 0
1 0.38767 0
1 0.39089 0
0.088696 0.35509 0.05031
0.10401 0.35212 0.053139
0.12016 0.34943 0.054241
0.13615 0.34743 0.053313
0.15407 0.34562 0.050366
0.17485 0.34377 0.045214
0.20009 0.34174 0.037061
0.23094 0.33942 0.025152
0.26767 0.3372 0.011752
0.30719 0.33592 0
0.34697 0.33502 0
0.38514 0.33366 0
0.42065 0.33148 0
0.45513 0.32808 0
0.48994 0.32399 0
0.52608 0.31964 0
0.566 0.31432 0
0.60992 0.31002 0.0056958
0.65824 0.30875 0.012959
0.71332 0.31253 0.017059
0.7762 0.32351 0.018858
0.83695 0.34084 0.019676
0.88942 0.36084 0.018978
0.93408 0.37846 0.0158
0.9706 0.39017 0.010116
0.99715 0.39562 0.0049941
1 0.39982 0
1 0.40386 0
1 0.4082 0
1 0.41268 0
1 0.41696 0
1 0.42104 0
1 0.42525 0
0.082387 0.38879 0.053755
0.09845 0.38641 0.056319
0.11539 0.38465 0.0571
0.13213 0.38346 0.056014
0.15157 0.38267 0.053261
0.17354 0.38263 0.048574
0.20007 0.38301 0.04153
0.23159 0.38377 0.030619
0.26816 0.38459 0.017795
0.30703 0.38471 0.0050775
0.3457 0.38393 0
0.38279 0.38247 0
0.41768 0.38073 0
0.45132 0.37884 0
0.4856 0.3762 0
0.52137 0.37238 0
0.55918 0.3673 0
0.60243 0.36017 0
0.65553 0.35327 0.0045166
0.72017 0.35465 0.0091755
0.79223 0.36651 0.014261
0.85795 0.3843 0.017307
0.90883 0.4009 0.017422
0.94882 0.41406 0.014088
0.97805 0.42142 0.010143
1 0.42569 0.0054001
1 0.4292 0
1 0.43333 0
1 0.43827 0
1 0.44363 0
1 0.44918 0
1 0.45487 0
1 0.46055 0
0.078238 0.42254 0.056264
0.095119 0.42074 0.05846
0.11303 0.41962 0.058867
0.13067 0.41915 0.057637
0.1513 0.41941 0.055129
0.17487 0.42031 0.051066
0.20259 0.42183 0.044971
0.23462 0.42383 0.035234
0.27041 0.42568 0.023198
0.30779 0.42687 0.011241
0.3448 0.42679 0.00092147
0.38081 0.42547 0
0.41549 0.4235 0
0.44908 0.42149 0
0.48252 0.41922 0
0.51688 0.41595 0
0.55363 0.4113 0
0.59548 0.40632 0
0.65062 0.4021 0
0.72623 0.40419 0
0.8068 0.41574 0.0069516
0.87323 0.42931 0.011198
0.92102 0.43857 0.011786
0.9577 0.446 0.0093495
0.98373 0.45031 0.0071502
1 0.45432 0.0032444
1 0.45879 0
1 0.46375 0
1 0.4692 0
1 0.4749 0
1 0.4809 0
1 0.48714 0
1 0.49366 0
0.075447 0.45679 0.058586
0.093224 0.45543 0.060289
0.11226 0.45482 0.060435
0.13097 0.45501 0.059324
0.15264 0.45591 0.057314
0.17728 0.45713 0.053991
0.20573 0.45873 0.048714
0.23798 0.46088 0.040204
0.27295 0.46308 0.028889
0.30918 0.46482 0.017744
0.34475 0.46556 0.0078211
0.37953 0.46513 0
0.41328 0.46358 0
0.44633 0.46087 0
0.4794 0.45741 0
0.5132 0.4538 0
0.54952 0.44999 0
0.59276 0.44686 0
0.65148 0.44873 0
0.73293 0.45825 0
0.81649 0.46765 0
0.88041 0.47218 0.0032466
0.9268 0.47538 0.0038708
0.9617 0.47796 0.0030699
0.98831 0.48002 0.0019658
1 0.48368 0
1 0.48896 0
1 0.49517 0
1 0.50124 0
1 0.50697 0
1 0.51289 0
1 0.5192 0
1 0.52577 0
0.073642 0.48918 0.060854
0.092414 0.48824 0.061951
0.11263 0.48817 0.061743
0.13245 0.48895 0.060633
0.15481 0.49037 0.058859
0.17968 0.49215 0.055985
0.20811 0.49395 0.051404
0.24078 0.4957 0.044352
0.27542 0.49777 0.034212
0.31083 0.49948 0.024057
0.34543 0.5004 0.014697
0.37915 0.50047 0.0065034
0.41166 0.49945 0
0.44325 0.49719 0
0.47564 0.49368 0
0.50988 0.48966 0
0.54711 0.48654 0
0.59296 0.48627 0
0.65857 0.49402 0
0.74142 0.50874 0
0.82046 0.51362 0
0.88117 0.51153 0
0.92865 0.51081 0
0.96289 0.51104 0
0.99165 0.51206 0
1 0.51503 0
1 0.5204 0
1 0.5271 0
1 0.53367 0
1 0.53963 0
1 0.54517 0
1 0.55094 0
1 0.55689 0
0.072269 0.51922 0.062613
0.092098 0.51855 0.063021
0.11354 0.51886 0.062352
0.13432 0.51997 0.061059
0.1572 0.52164 0.059276
0.18232 0.52366 0.056622
0.21062 0.5259 0.052556
0.24309 0.52817 0.046742
0.2775 0.53008 0.037988
0.31215 0.53148 0.028918
0.34583 0.53217 0.020187
0.37879 0.53187 0.012177
0.41048 0.53073 0.0053981
0.44124 0.52895 0.0003809
0.47285 0.52685 0
0.50718 0.5245 0
0.54635 0.52296 0
0.59632 0.526 0
0.66892 0.53898 0
0.74875 0.55177 0
0.8212 0.55173 0
0.88036 0.54663 0
0.92826 0.54461 0
0.96324 0.54373 0
0.99403 0.5448 0
1 0.54777 0
1 0.5527 0
1 0.55896 0
1 0.5654 0
1 0.57158 0
1 0.57738 0
1 0.58263 0
1 0.58744 0
0.070985 0.54768 0.063483
0.091942 0.5472 0.063158
0.11461 0.54775 0.061929
0.13621 0.54903 0.060298
0.15961 0.55087 0.058347
0.18504 0.5531 0.055761
0.21337 0.55562 0.052115
0.24556 0.55822 0.047351
0.27902 0.56026 0.039952
0.3129 0.56102 0.032
0.34583 0.56109 0.024034
0.37815 0.56058 0.01638
0.40948 0.55967 0.0095271
0.44012 0.55872 0.0040224
0.4719 0.55787 1.5147e-05
0.50662 0.55757 0
0.54753 0.55908 0
0.60238 0.56639 0
0.67788 0.58112 0
0.75341 0.58844 0
0.82066 0.58577 0
0.87947 0.58062 0
0.92671 0.57803 0
0.96285 0.57689 0
0.99583 0.5778 0
1 0.58102 0
1 0.58581 0
1 0.59106 0
1 0.59682 0
1 0.60268 0
1 0.60846 0
1 0.61394 0
1 0.61882 0
0.069748 0.57564 0.06335
0.091934 0.57534 0.062288
0.11575 0.57606 0.060445
0.13814 0.57749 0.058406
0.16208 0.57947 0.056215
0.18783 0.58187 0.053641
0.21613 0.58449 0.050378
0.24781 0.58698 0.046434
0.28023 0.58873 0.040405
0.31274 0.58919 0.033446
0.34535 0.58857 0.026405
0.3776 0.58804 0.019125
0.40916 0.58757 0.012323
0.4402 0.58765 0.0063752
0.47248 0.5885 0.001434
0.5082 0.5905 0
0.5514 0.5953 0
0.61074 0.60654 0
0.68435 0.61941 0
0.75573 0.6217 0
0.82024 0.61866 0
0.87888 0.61577 0
0.92438 0.61314 0
0.96194 0.61147 0
0.99703 0.61214 0
1 0.61515 0
1 0.61904 0
1 0.62341 0
1 0.62795 0
1 0.63298 0
1 0.63861 0
1 0.64439 0
1 0.65014 0
0.068669 0.60412 0.062414
0.092148 0.60401 0.060612
0.11708 0.60494 0.058132
0.14022 0.60654 0.055669
0.16466 0.60867 0.053244
0.1906 0.6111 0.050717
0.21865 0.61357 0.047817
0.24946 0.61562 0.044575
0.28092 0.61673 0.039982
0.3123 0.61701 0.033823
0.34449 0.61649 0.02748
0.37725 0.61596 0.020919
0.4095 0.61611 0.014351
0.44167 0.61725 0.0079614
0.47493 0.62 0.0019795
0.51211 0.62455 0
0.55795 0.63281 0
0.61981 0.64631 0
0.68861 0.65472 0
0.75692 0.65373 0
0.8213 0.65189 0
0.87871 0.65228 0
0.92199 0.64999 0
0.96062 0.64812 0
0.99743 0.64807 0
1 0.64977 0
1 0.65248 0
1 0.65558 0
1 0.65894 0
1 0.66298 0
1 0.66804 0
1 0.67401 0
1 0.68045 0
0.067908 0.6333 0.060835
0.092678 0.63345 0.058274
0.11865 0.63461 0.055148
0.14247 0.63638 0.052271
0.16724 0.63855 0.049671
0.19311 0.64082 0.047266
0.22065 0.64294 0.044778
0.25048 0.64453 0.042175
0.28117 0.64521 0.038768
0.3118 0.64524 0.033531
0.34388 0.64498 0.028008
0.37731 0.645 0.022108
0.41085 0.64615 0.015661
0.44441 0.64887 0.0087522
0.47929 0.65323 0.0016521
0.51821 0.66008 0
0.56612 0.67057 0
0.62724 0.68301 0
0.69128 0.68752 0
0.7576 0.68683 0
0.82416 0.68707 0
0.8787 0.68894 0
0.92024 0.68779 0
0.95914 0.68617 0
0.99682 0.68528 0
1 0.68547 0
1 0.68622 0
1 0.6878 0
1 0.69055 0
1 0.69416 0
1 0.69858 0
1 0.70399 0
1 0.7103 0
0.067531 0.66332 0.058717
0.093545 0.66371 0.055357
0.12044 0.66503 0.051608
0.14474 0.66681 0.048361
0.16965 0.66896 0.045535
0.19532 0.67106 0.043211
0.22215 0.67278 0.041198
0.25091 0.67377 0.039465
0.28103 0.67402 0.037338
0.31143 0.67408 0.03303
0.34393 0.6743 0.028219
0.37823 0.67532 0.022661
0.41348 0.67763 0.016119
0.44869 0.68193 0.00844
0.48502 0.68797 0
0.52537 0.69595 0
0.57434 0.7065 0
0.63218 0.71599 0
0.69336 0.71877 0
0.75986 0.72008 0
0.82796 0.72408 0
0.87879 0.72633 0
0.91924 0.72603 0
0.95767 0.72436 0
0.99549 0.7227 0
1 0.72148 0
1 0.72082 0
1 0.72118 0
1 0.72313 0
1 0.7266 0
1 0.73095 0
1 0.73575 0
1 0.74119 0
0.067485 0.69442 0.056303
0.094691 0.6951 0.052027
0.1224 0.69664 0.047503
0.14702 0.69841 0.043867
0.17182 0.70025 0.04112
0.197 0.70188 0.039221
0.22299 0.70305 0.037918
0.25091 0.70364 0.037095
0.28084 0.70385 0.036148
0.3116 0.70429 0.032848
0.34482 0.70525 0.028503
0.38041 0.70734 0.023
0.41723 0.71105 0.015886
0.45418 0.71624 0.0070528
0.49142 0.72291 0
0.53226 0.73076 0
0.58098 0.73995 0
0.63617 0.74655 0
0.69599 0.74987 0
0.76419 0.75388 0
0.83205 0.76086 0
0.87947 0.76321 0
0.91877 0.76326 0
0.95636 0.76205 0
0.99348 0.76006 0
1 0.75749 0
1 0.75558 0
1 0.75535 0
1 0.75694 0
1 0.75985 0
1 0.76363 0
1 0.76823 0
1 0.77254 0
0.067875 0.7275 0.05333
0.096102 0.72833 0.048242
0.1243 0.72975 0.043333
0.149 0.73124 0.039705
0.17349 0.73266 0.037284
0.19806 0.73378 0.035966
0.22337 0.73455 0.035446
0.25089 0.73509 0.035544
0.28103 0.73569 0.035569
0.31266 0.73685 0.033316
0.34679 0.7388 0.029326
0.38379 0.74194 0.023567
0.42199 0.74642 0.015325
0.45959 0.7517 0.0046511
0.49737 0.75734 0
0.5384 0.7642 0
0.58689 0.7716 0
0.64001 0.77685 0
0.70026 0.78186 0
0.77048 0.78893 0
0.8356 0.7964 0
0.88012 0.79862 0
0.91863 0.79877 0
0.95549 0.79806 0
0.99164 0.79634 0
1 0.79394 0
1 0.79176 0
1 0.79077 0
1 0.79146 0
1 0.79342 0
1 0.79655 0
1 0.79956 0
1 0.80271 0
0.068501 0.76208 0.050093
0.0975 0.76293 0.044541
0.12597 0.76416 0.039632
0.15053 0.7653 0.036335
0.17458 0.76627 0.034434
0.19869 0.76705 0.033779
0.22373 0.76777 0.034004
0.25131 0.76865 0.034884
0.28201 0.76998 0.035697
0.31483 0.77209 0.034536
0.34984 0.77501 0.030715
0.38783 0.77872 0.024327
0.42651 0.78284 0.014461
0.464 0.78688 0.0015025
0.50169 0.79108 0
0.54335 0.79612 0
0.59183 0.80202 0
0.64495 0.80758 0
0.7064 0.81532 0
0.77785 0.82487 0
0.83771 0.83067 0
0.88057 0.83235 0
0.91857 0.83269 0
0.95527 0.83248 0
0.99044 0.83183 0
1 0.8303 0
1 0.82867 0
1 0.82769 0
1 0.82778 0
1 0.82872 0
1 0.82953 0
1 0.83096 0
1 0.83305 0
0.069199 0.79323 0.047053
0.098652 0.79407 0.041456
0.12712 0.79507 0.036907
0.15146 0.79591 0.034128
0.17515 0.79665 0.032721
0.19913 0.79741 0.032569
0.22428 0.79837 0.033341
0.25227 0.79978 0.034804
0.28368 0.8019 0.03621
0.31747 0.80472 0.035832
0.35288 0.80804 0.03188
0.39098 0.8114 0.024617
0.42926 0.81437 0.013162
0.46644 0.81695 0
0.50462 0.81993 0
0.54708 0.82368 0
0.59618 0.82889 0
0.65074 0.83601 0
0.71337 0.84653 0
0.78421 0.85757 0
0.8387 0.86134 0
0.88084 0.86239 0
0.91874 0.86299 0
0.95554 0.86335 0
0.99054 0.86353 0
1 0.86358 0
1 0.86301 0
1 0.86244 0
1 0.86196 0
1 0.86115 0
1 0.86094 0
1 0.86139 0
1 0.8625 0
0.070013 0.82345 0.044083
0.09965 0.82428 0.03881
0.12798 0.82514 0.034847
0.15212 0.82588 0.032587
0.17559 0.82665 0.031626
0.19972 0.8276 0.031913
0.22524 0.82896 0.033115
0.25382 0.83097 0.035005
0.28583 0.83369 0.036805
0.32017 0.83678 0.036857
0.35542 0.83981 0.032523
0.39292 0.84226 0.024296
0.43051 0.84392 0.011403
0.46768 0.84533 0
0.50675 0.84739 0
0.55105 0.85079 0
0.60149 0.85653 0
0.65792 0.86614 0
0.72166 0.87917 0
0.78882 0.89039 0
0.8391 0.89278 0
0.88111 0.89342 0
0.91939 0.89441 0
0.95628 0.89556 0
0.99142 0.89636 0
1 0.89727 0
1 0.89854 0
1 0.89865 0
1 0.89725 0
1 0.89583 0
1 0.8948 0
1 0.89431 0
1 0.89444 0
0.070901 0.85437 0.041599
0.10057 0.85526 0.036849
0.12877 0.85618 0.03354
0.15283 0.85704 0.031845
0.17624 0.858 0.031327
0.20076 0.85928 0.031968
0.22681 0.86105 0.033454
0.25592 0.86345 0.03557
0.28819 0.86628 0.037479
0.32248 0.86898 0.03758
0.35712 0.87122 0.032795
0.39359 0.87253 0.023719
0.43056 0.87307 0.0096207
0.46825 0.87368 0
0.50874 0.87521 0
0.55606 0.87956 0
0.6079 0.887 0
0.66654 0.89927 0
0.73123 0.91398 0
0.79162 0.92315 0
0.83953 0.92576 0
0.88155 0.9268 0
0.92075 0.92802 0
0.95765 0.92983 0
0.9928 0.93121 0
1 0.93274 0
1 0.93397 0
1 0.93477 0
1 0.93451 0
1 0.93322 0
1 0.93156 0
1 0.93013 0
1 0.9292 0
0.071901 0.88759 0.039683
0.10161 0.8887 0.035582
0.12979 0.88988 0.032979
0.15393 0.89102 0.031844
0.17741 0.89229 0.031705
0.2024 0.89386 0.03256
0.22889 0.89581 0.03412
0.25823 0.89811 0.036183
0.29031 0.90044 0.037889
0.324 0.90227 0.037757
0.3578 0.90352 0.032749
0.39306 0.9039 0.023152
0.42968 0.90371 0.0082541
0.46853 0.90399 0
0.51149 0.90582 0
0.56164 0.91187 0
0.61595 0.92192 0
0.67638 0.93585 0
0.74015 0.94991 0
0.79428 0.95679 0
0.84094 0.9601 0
0.88291 0.96261 0
0.9223 0.96459 0
0.95949 0.96609 0
0.9948 0.9678 0
1 0.96869 0
1 0.96962 0
1 0.97065 0
1 0.97147 0
1 0.97143 0
1 0.97023 0
1 0.9683 0
1 0.96628 0
0.073158 0.92263 0.038022
0.10294 0.92402 0.034549
0.13117 0.9255 0.032533
0.15542 0.92688 0.031795
0.17894 0.92831 0.031857
0.20414 0.92989 0.032715
0.23075 0.93157 0.034091
0.25996 0.9333 0.035806
0.29157 0.93481 0.037094
0.32448 0.93575 0.036599
0.3575 0.93626 0.031719
0.39174 0.93623 0.021993
0.42842 0.93593 0.0067801
0.46903 0.93652 0
0.5159 0.93993 0
0.56894 0.94843 0
0.62555 0.96098 0
0.68613 0.97483 0
0.74722 0.98654 0
0.79728 0.99201 0
0.84375 0.99645 0
0.88574 1 0
0.92441 1 0
0.96114 1 0
0.9958 1 0
1 1 0
1 1 0
1 1 0
1 1 0
1 1 0
1 1 0
1 1 0
1 1 0
0.074644 0.9585 0.036353
0.10443 0.95997 0.033298
0.13259 0.96143 0.03157
0.15679 0.96267 0.030939
0.18021 0.96383 0.030951
0.20523 0.96494 0.03158
0.23173 0.966 0.032555
0.26069 0.96699 0.033747
0.29187 0.96773 0.034553
