One-Shot Anime/Ramayana - The Legend Of Prince Rama (Color Graded).cube
LUT_3D_SIZE 9
0.085999 0.11072 0.043283
0.19797 0.11588 0.015732
0.29945 0.1161 0
0.39227 0.11419 0
0.48989 0.11777 0.010496
0.57147 0.12745 0.01744
0.71364 0.1341 0.010016
0.88128 0.14584 0.0018152
1 0.15854 0.0083326
0.089697 0.15439 0.037769
0.19714 0.15933 0.010492
0.29823 0.15535 0
0.39113 0.15036 0
0.4932 0.15046 0.012746
0.57497 0.15987 0.019931
0.71667 0.17035 0.010879
0.88665 0.18416 0.0054974
1 0.19725 0.010201
0.096499 0.20814 0.031677
0.19574 0.21532 0.0058533
0.29434 0.20921 0
0.38679 0.20073 3.8472e-05
0.49574 0.19452 0.01594
0.5796 0.20169 0.022778
0.72269 0.21323 0.013229
0.89425 0.23354 0.010505
1 0.2485 0.012586
0.11056 0.27914 0.028718
0.19667 0.29443 0.0075888
0.28868 0.29237 0
0.37708 0.28648 0.0065185
0.49152 0.27624 0.021954
0.58574 0.27437 0.026514
0.7347 0.28752 0.019295
0.90829 0.3096 0.016955
1 0.33481 0.019385
0.13018 0.35398 0.031475
0.20795 0.37541 0.016451
0.28856 0.38365 0.011343
0.37149 0.38554 0.023419
0.47976 0.38146 0.035626
0.59 0.37579 0.033734
0.75181 0.39524 0.02825
0.92781 0.41544 0.025037
1 0.44311 0.032216
0.15016 0.44081 0.030976
0.22714 0.46319 0.019898
0.29416 0.4797 0.023616
0.37289 0.48488 0.039125
0.47411 0.48495 0.049714
0.59588 0.48421 0.048692
0.77114 0.50619 0.04375
0.95093 0.5375 0.047294
1 0.55245 0.042587
0.16597 0.5397 0.034728
0.24803 0.5574 0.024402
0.30976 0.57654 0.031297
0.379 0.59139 0.04802
0.4777 0.60229 0.062596
0.60251 0.60865 0.064985
0.79584 0.62739 0.063727
0.96894 0.65591 0.064496
1 0.66564 0.047082
0.18082 0.64574 0.034224
0.26454 0.65951 0.02747
0.33052 0.67544 0.036643
0.40105 0.69945 0.056852
0.49356 0.72777 0.078273
0.60976 0.74196 0.082615
0.8157 0.7526 0.084413
0.97928 0.76418 0.069815
1 0.76731 0.045969
0.19599 0.75621 0.029384
0.27935 0.77184 0.029656
0.35453 0.78803 0.042118
0.43245 0.81134 0.062506
0.52133 0.84241 0.084489
0.62628 0.86915 0.098453
0.82343 0.87292 0.096094
0.97801 0.87168 0.069301
1 0.87076 0.043071
0.077503 0.10602 0.14106
0.1734 0.10938 0.1233
0.28364 0.11106 0.092336
0.39743 0.113 0.075862
0.50012 0.12045 0.085623
0.57461 0.13117 0.096122
0.70919 0.13825 0.096021
0.88488 0.1537 0.099587
1 0.16414 0.10221
0.08017 0.14649 0.14024
0.17366 0.14915 0.12139
0.28464 0.14953 0.089862
0.39837 0.15013 0.075117
0.50436 0.15399 0.086614
0.57804 0.16397 0.09787
0.7135 0.17623 0.10019
0.88975 0.19138 0.10331
1 0.20276 0.10624
0.086465 0.19819 0.13721
0.17405 0.20831 0.11694
0.28415 0.20709 0.085887
0.39691 0.20226 0.074523
0.50788 0.19919 0.088726
0.58266 0.20694 0.10139
0.72141 0.22307 0.1079
0.89554 0.24042 0.10745
1 0.25727 0.11218
0.10106 0.2733 0.12908
0.18051 0.29579 0.10994
0.28167 0.3 0.085746
0.38886 0.2945 0.079827
0.50422 0.28283 0.095813
0.58929 0.28063 0.11059
0.7345 0.29699 0.12044
0.9088 0.3162 0.11624
1 0.34492 0.1215
0.12299 0.3496 0.12459
0.20002 0.37708 0.11011
0.28625 0.3937 0.095802
0.38284 0.39695 0.096147
0.48806 0.39103 0.11132
0.59356 0.38582 0.12853
0.74846 0.40238 0.13178
0.93309 0.42867 0.13334
1 0.44772 0.12795
0.14398 0.44429 0.12628
0.22304 0.4652 0.11724
0.29811 0.48597 0.10833
0.38452 0.49258 0.11285
0.48371 0.49574 0.13344
0.59998 0.49692 0.15131
0.7713 0.52246 0.15486
0.95005 0.55184 0.15354
1 0.55802 0.13471
0.15785 0.54273 0.13508
0.24364 0.55745 0.12273
0.31589 0.57982 0.11537
0.39405 0.6009 0.12881
0.48969 0.61605 0.15654
0.6061 0.62236 0.17293
0.7952 0.64357 0.17723
0.95904 0.66012 0.16002
1 0.66581 0.13725
0.1717 0.64062 0.13491
0.26179 0.65876 0.12183
0.34127 0.68052 0.12174
0.41941 0.70891 0.14357
0.50523 0.73527 0.17051
0.61831 0.75263 0.18956
0.80685 0.76096 0.18974
0.963 0.76375 0.16092
1 0.7653 0.13734
0.19006 0.74936 0.1278
0.28197 0.77044 0.11997
0.3683 0.79188 0.12773
0.4495 0.81614 0.15021
0.53704 0.84645 0.17693
0.6367 0.87096 0.1942
0.80648 0.86998 0.18693
0.96024 0.86901 0.15728
1 0.8698 0.13708
0.073997 0.10698 0.21983
0.15753 0.11178 0.21239
0.25905 0.11378 0.1931
0.38845 0.11404 0.16714
0.50705 0.12269 0.16142
0.57965 0.13409 0.16899
0.71258 0.14939 0.18379
0.88805 0.16285 0.19066
1 0.17446 0.19476
0.07773 0.14444 0.22072
0.15892 0.15078 0.21481
0.26074 0.15163 0.19618
0.39006 0.15043 0.16927
0.51185 0.15624 0.163
0.58405 0.16958 0.17235
0.7178 0.1896 0.19025
0.89237 0.20047 0.19595
1 0.2135 0.20015
0.085324 0.19386 0.21918
0.16087 0.20496 0.21679
0.26159 0.20534 0.19984
0.39034 0.202 0.17149
0.51688 0.20275 0.16531
0.59138 0.21637 0.17873
0.72401 0.23875 0.19863
0.89844 0.24987 0.20317
1 0.26701 0.20516
0.099768 0.26672 0.2154
0.17018 0.28584 0.21374
0.26332 0.29792 0.19711
0.38669 0.29987 0.17102
0.51762 0.28925 0.17084
0.60267 0.29438 0.19272
0.73296 0.30917 0.21117
0.91414 0.32998 0.21651
1 0.35061 0.20855
0.12086 0.34698 0.21532
0.19378 0.37568 0.21044
0.27419 0.40204 0.19463
0.38399 0.4079 0.17615
0.50572 0.40201 0.18684
0.60791 0.39897 0.21084
0.74914 0.41749 0.22939
0.93284 0.44292 0.23176
1 0.45183 0.21254
0.14322 0.44654 0.21685
0.21928 0.46794 0.21336
0.29226 0.49 0.20255
0.3912 0.50422 0.19591
0.50229 0.5119 0.21359
0.61522 0.515 0.23734
0.77139 0.54119 0.25392
0.94058 0.55784 0.23842
1 0.5622 0.21721
0.15992 0.5438 0.21551
0.23699 0.55577 0.21431
0.31637 0.58024 0.20732
0.40988 0.61258 0.21319
0.50842 0.62933 0.23515
0.6255 0.63738 0.26307
0.78585 0.65375 0.26899
0.94463 0.66154 0.24268
1 0.6666 0.22249
0.17371 0.63641 0.21301
0.2557 0.65448 0.21438
0.3494 0.68293 0.21223
0.437 0.71534 0.22297
0.52709 0.74453 0.25024
0.6348 0.75808 0.27668
0.79171 0.76014 0.27095
0.94733 0.76139 0.24241
1 0.76547 0.22576
0.19261 0.74367 0.20875
0.2807 0.76494 0.21217
0.37997 0.79326 0.2143
0.46817 0.82138 0.23025
0.55776 0.84964 0.25724
0.64378 0.86524 0.27262
0.78967 0.86317 0.26344
0.94597 0.86507 0.23808
1 0.86454 0.22115
0.087683 0.119 0.3068
0.15355 0.12901 0.31861
0.23686 0.13343 0.31893
0.34975 0.13305 0.30788
0.49893 0.13472 0.28463
0.59419 0.15286 0.2844
0.73491 0.17049 0.3062
0.89729 0.18109 0.32796
1 0.18446 0.3226
0.092424 0.15123 0.31137
0.15588 0.1615 0.32478
0.23858 0.16596 0.32503
0.35157 0.16754 0.31205
0.50498 0.17011 0.29024
0.60073 0.19241 0.29115
0.73812 0.21024 0.31345
0.89981 0.21956 0.33409
1 0.22327 0.3237
0.099709 0.19495 0.31525
0.15916 0.20632 0.33091
0.24056 0.21118 0.3305
0.3542 0.2146 0.31538
0.51292 0.21795 0.2969
0.61029 0.23938 0.29823
0.74319 0.25814 0.32131
0.90287 0.26828 0.33971
1 0.27301 0.32562
0.11427 0.26732 0.3155
0.17096 0.28371 0.33216
0.24349 0.29518 0.33226
0.35756 0.29853 0.31918
0.52262 0.29691 0.305
0.62373 0.30822 0.3057
0.75677 0.33015 0.33537
0.90836 0.34661 0.34598
1 0.35207 0.3292
0.13548 0.35841 0.32087
0.19359 0.38072 0.33485
0.25908 0.40585 0.33658
0.36539 0.42472 0.33098
0.51619 0.42286 0.31374
0.63818 0.42665 0.32175
0.77119 0.44585 0.35383
0.91475 0.44917 0.35308
1 0.45575 0.33357
0.15457 0.45029 0.33057
0.2177 0.46558 0.3416
0.28785 0.49106 0.34641
0.38648 0.52387 0.34476
0.52109 0.54499 0.33765
0.65255 0.55379 0.35362
0.77072 0.56298 0.37083
0.91713 0.56516 0.36166
1 0.5703 0.34116
0.16983 0.53837 0.33182
0.24114 0.55498 0.34466
0.32188 0.58315 0.35339
0.41866 0.62194 0.35557
0.5386 0.65246 0.36172
0.65787 0.65666 0.37372
0.77174 0.65982 0.38114
0.92134 0.66408 0.36847
1 0.67081 0.34884
0.18983 0.63511 0.33063
0.269 0.65774 0.34937
0.35531 0.68512 0.3621
0.45436 0.72208 0.36798
0.55694 0.75552 0.37308
0.65273 0.75966 0.37871
0.77354 0.75595 0.3823
0.92565 0.75937 0.36887
1 0.76214 0.34498
0.21188 0.74842 0.33875
0.29636 0.77112 0.36193
0.38752 0.80021 0.37762
0.48379 0.82701 0.37615
0.57532 0.84827 0.3737
0.65202 0.85725 0.37687
0.77439 0.85578 0.37987
0.9232 0.8569 0.36283
1 0.85033 0.33355
0.10664 0.13766 0.43696
0.17401 0.15054 0.44784
0.24156 0.15851 0.45986
0.33701 0.16703 0.47132
0.47523 0.16941 0.47069
0.59181 0.18346 0.46094
0.76313 0.20346 0.45902
0.90658 0.20511 0.45965
1 0.19974 0.46146
0.1133 0.16834 0.44025
0.17729 0.18151 0.45206
0.2443 0.19017 0.46593
0.34063 0.20094 0.48039
0.47743 0.20489 0.47821
0.59954 0.21809 0.46785
0.76699 0.23739 0.46337
0.90494 0.23799 0.46369
1 0.2342 0.46612
0.12194 0.20806 0.44319
0.18156 0.22119 0.4575
0.24886 0.23129 0.47527
0.34548 0.24449 0.49236
0.48133 0.24806 0.48855
0.6102 0.26365 0.47783
0.7703 0.28145 0.4696
0.9031 0.28158 0.46964
1 0.28008 0.47202
0.13563 0.27512 0.44767
0.1928 0.29091 0.46504
0.25827 0.30728 0.4907
0.35212 0.31913 0.50782
0.48681 0.32346 0.50402
0.62682 0.3367 0.49261
0.7754 0.3524 0.47828
0.90182 0.35822 0.47879
1 0.36199 0.48064
0.15389 0.37079 0.45158
0.21815 0.39274 0.4704
0.28051 0.41281 0.4947
0.36349 0.43195 0.51266
0.49137 0.44567 0.51391
0.6393 0.44519 0.49865
0.78412 0.45355 0.4821
0.90876 0.46204 0.48761
1 0.4727 0.48815
0.1748 0.45982 0.45943
0.24637 0.47864 0.47691
0.31318 0.50243 0.49937
0.39551 0.53618 0.51967
0.50052 0.56645 0.51602
0.64234 0.57065 0.4933
0.78572 0.57609 0.48083
0.9164 0.57795 0.49257
1 0.57835 0.48948
0.19415 0.54832 0.46826
0.27197 0.56779 0.48685
0.34992 0.59655 0.51258
0.42815 0.63015 0.52795
0.518 0.65934 0.51653
0.64637 0.6684 0.49151
0.78785 0.67193 0.48753
0.91492 0.67153 0.49756
1 0.66699 0.48632
0.21541 0.65353 0.48138
0.30419 0.6822 0.50304
0.38058 0.70927 0.52425
0.45222 0.72946 0.52834
0.53987 0.75523 0.51292
0.64662 0.76717 0.49585
0.78778 0.76108 0.49613
0.90656 0.75278 0.49793
1 0.74601 0.48021
0.24199 0.78032 0.50081
0.33173 0.80425 0.51835
0.40092 0.81977 0.52817
0.46735 0.83089 0.52739
0.55961 0.84405 0.51339
0.65278 0.85829 0.50151
0.77943 0.85488 0.49913
0.89316 0.84341 0.49408
1 0.83451 0.47521
0.12009 0.136 0.62131
0.19329 0.15583 0.63513
0.27471 0.17176 0.64976
0.37135 0.18118 0.67056
0.48328 0.18622 0.69901
0.58321 0.19268 0.70377
0.72391 0.20531 0.67587
0.89521 0.20945 0.64029
1 0.20941 0.62954
0.12893 0.16554 0.62124
0.20072 0.189 0.63818
0.2808 0.20668 0.65303
0.37395 0.22141 0.6746
0.48499 0.22493 0.70208
0.5857 0.22973 0.70302
0.72634 0.24274 0.67404
0.89634 0.24769 0.64213
1 0.24815 0.63102
0.14161 0.20667 0.62107
0.21151 0.23213 0.64077
0.28952 0.2515 0.65658
0.38014 0.26748 0.68022
0.48601 0.27305 0.70309
0.58867 0.27696 0.69973
0.72976 0.2882 0.673
0.89864 0.29629 0.64372
1 0.29933 0.63106
0.16306 0.28209 0.61895
0.23051 0.3039 0.64015
0.30494 0.3233 0.66092
0.39019 0.33971 0.68567
0.4869 0.34308 0.70124
0.59308 0.34377 0.69661
0.73604 0.35644 0.67215
0.9056 0.37217 0.64219
1 0.37567 0.62958
0.18541 0.38428 0.61853
0.25839 0.40338 0.64123
0.33133 0.42749 0.66933
0.39706 0.44198 0.69099
0.47901 0.43962 0.70294
0.59425 0.43136 0.69863
0.74995 0.44517 0.67168
0.91581 0.4651 0.63549
1 0.46885 0.62604
0.20499 0.48129 0.63702
0.28813 0.5058 0.66556
0.3545 0.52736 0.68301
0.40985 0.54467 0.69379
0.47558 0.55844 0.70499
0.58746 0.56228 0.69587
0.75839 0.56492 0.66069
0.9204 0.56323 0.62052
1 0.56256 0.61537
0.22746 0.57967 0.67195
0.30891 0.6002 0.69144
0.37184 0.61657 0.69293
0.43005 0.63503 0.69492
0.49701 0.65998 0.70421
0.59059 0.68038 0.69696
0.75551 0.67783 0.65115
0.91048 0.66727 0.6047
1 0.66095 0.60542
0.24797 0.69163 0.69559
0.32504 0.70589 0.69803
0.38637 0.71733 0.69401
0.44908 0.73006 0.69563
0.521 0.74956 0.70462
0.60227 0.76649 0.6942
0.75389 0.76663 0.64453
0.90127 0.75753 0.60567
1 0.7534 0.6121
0.26271 0.80219 0.69644
0.33557 0.80947 0.69412
0.39922 0.8174 0.69117
0.46524 0.82945 0.69293
0.53971 0.84243 0.69604
0.61433 0.85526 0.68158
0.74971 0.86404 0.64104
0.8931 0.85696 0.62171
1 0.85427 0.6336
0.14844 0.14132 0.84704
0.22149 0.1704 0.86501
0.30982 0.18739 0.88395
0.40884 0.18708 0.89234
0.50454 0.18414 0.89446
0.58605 0.18859 0.90378
0.70667 0.19996 0.91557
0.84184 0.20836 0.90005
0.99797 0.20629 0.85137
0.15892 0.17321 0.8507
0.23138 0.20515 0.87109
0.31336 0.2243 0.88691
0.40618 0.22428 0.89181
0.50474 0.22078 0.89342
0.58864 0.22595 0.90345
0.71027 0.23696 0.91502
0.8425 0.24389 0.89609
0.99685 0.24221 0.84802
0.17268 0.21512 0.85653
0.24475 0.24722 0.87876
0.31866 0.26674 0.89087
0.40347 0.27142 0.89226
0.50466 0.26917 0.89397
0.59217 0.27458 0.9047
0.71327 0.28255 0.91391
0.84309 0.28717 0.89031
0.99743 0.28723 0.84493
0.19399 0.28745 0.86693
0.26451 0.31459 0.88813
0.32819 0.33372 0.89636
0.40403 0.34223 0.89675
0.50566 0.34431 0.89988
0.59584 0.34976 0.91054
0.71348 0.35178 0.91227
0.84407 0.35291 0.88015
1 0.35726 0.84199
0.21731 0.40347 0.88365
0.28711 0.42041 0.89341
0.34356 0.4331 0.89791
0.40801 0.44226 0.9038
0.50561 0.44381 0.91389
0.59698 0.44384 0.92359
0.71132 0.44141 0.91242
0.84608 0.44201 0.87403
1 0.44757 0.83822
0.23327 0.52426 0.90062
0.30051 0.53365 0.89962
0.35805 0.54266 0.8998
0.42194 0.5556 0.90918
0.50405 0.5673 0.92472
0.58345 0.56193 0.93027
0.70134 0.54408 0.91696
0.84701 0.5351 0.8815
1 0.54384 0.83391
0.24265 0.61002 0.91436
0.31094 0.61944 0.91208
0.37041 0.63141 0.91382
0.43988 0.64495 0.92125
0.51175 0.65591 0.92619
0.57228 0.65956 0.92981
0.68339 0.65519 0.9258
0.84228 0.65397 0.89023
1 0.65598 0.8406
0.25006 0.69478 0.92444
0.31971 0.70162 0.92403
0.38138 0.71021 0.92668
0.44897 0.71721 0.92775
0.52192 0.72389 0.92434
0.58176 0.73427 0.92509
0.68992 0.75536 0.92678
0.84672 0.77409 0.89569
1 0.78379 0.85847
0.25455 0.78523 0.92909
0.32561 0.7903 0.92975
0.38977 0.79725 0.92781
0.45622 0.8064 0.91919
0.53199 0.81481 0.90806
0.60153 0.82593 0.91258
0.71162 0.85082 0.92324
0.86437 0.88129 0.90776
1 0.90336 0.88744
0.16713 0.15959 1
0.23985 0.18353 1
0.31572 0.19002 1
0.40538 0.18612 1
0.51203 0.18369 1
0.60392 0.18899 1
0.7102 0.19383 1
0.81753 0.19526 1
0.95952 0.19796 1
0.17756 0.1929 1
0.24602 0.21776 1
0.31625 0.22746 1
0.40302 0.22643 1
0.5126 0.22462 1
0.60544 0.22825 1
0.7112 0.23046 1
0.81832 0.2316 1
0.96109 0.23399 1
0.1896 0.23381 1
0.25504 0.25749 1
0.31912 0.27335 1
0.40133 0.2779 1
0.51252 0.27729 1
0.60586 0.27775 1
0.71087 0.27671 1
0.81939 0.27611 1
0.96358 0.27897 1
0.20627 0.30159 1
0.26982 0.32133 1
0.32985 0.33936 1
0.4043 0.35309 1
0.51082 0.35764 1
0.60251 0.35396 1
0.70612 0.34735 1
0.82088 0.34502 1
0.96926 0.35054 1
0.22061 0.41125 1
0.28757 0.4205 1
0.34727 0.43374 1
0.41577 0.449 1
0.50704 0.45189 1
0.59432 0.44508 1
0.70089 0.4408 1
0.82167 0.44263 1
0.97961 0.45194 1
0.23103 0.52802 1
0.29994 0.53584 1
0.36323 0.54306 1
0.42934 0.55069 1
0.50204 0.55448 1
0.58125 0.54858 1
0.69891 0.544 1
0.82759 0.54976 1
0.99626 0.56394 1
0.23919 0.6207 1
0.31039 0.6294 1
0.37239 0.63802 1
0.43899 0.64375 1
0.5094 0.65115 1
0.5812 0.65813 1
0.69507 0.66332 1
0.83316 0.66964 1
1 0.67883 1
0.24728 0.70007 1
0.31762 0.70723 1
0.37894 0.71269 1
0.44462 0.71831 1
0.52207 0.72647 1
0.59776 0.74228 1
0.70507 0.76775 1
0.84206 0.79295 1
1 0.81573 1
0.25341 0.78818 1
0.32018 0.79067 1
0.38294 0.7924 1
0.4509 0.7982 1
0.53464 0.81053 1
0.61954 0.82523 1
0.73364 0.85642 1
0.87057 0.90219 1
1 0.94994 1
0.17527 0.16886 1
0.24054 0.18703 1
0.3106 0.19631 1
0.40197 0.19602 1
0.51331 0.1917 1
0.60255 0.18808 1
0.71334 0.18504 1
0.82096 0.19156 1
0.95565 0.19559 1
0.18277 0.20146 1
0.2467 0.22083 1
0.31269 0.23478 1
0.40081 0.23822 1
0.51065 0.23318 1
0.60086 0.22724 1
0.71426 0.22349 1
0.82309 0.22945 1
0.95651 0.23288 1
0.1923 0.24052 1
0.25582 0.26253 1
0.31857 0.28179 1
0.40019 0.28965 1
0.50621 0.28459 1
0.59771 0.27681 1
0.71419 0.27218 1
0.82541 0.27604 1
0.95793 0.27999 1
0.20646 0.30523 1
0.27183 0.32546 1
0.33194 0.34688 1
0.40256 0.36329 1
0.49865 0.36258 1
0.58969 0.35273 1
0.71146 0.34726 1
0.82812 0.34896 1
0.96274 0.35886 1
0.21989 0.4079 1
0.29124 0.4188 1
0.35082 0.43222 1
0.41311 0.44347 1
0.49347 0.44717 1
0.58279 0.44448 1
0.70867 0.44605 1
0.83384 0.45496 1
0.97897 0.47373 1
0.22992 0.52439 1
0.30108 0.52864 1
0.36025 0.52989 1
0.42279 0.53227 1
0.49775 0.53723 1
0.58348 0.54164 1
0.71708 0.54905 1
0.84925 0.56865 1
1 0.59908 1
0.23586 0.62213 1
0.30367 0.62434 1
0.3636 0.62744 1
0.43026 0.63296 1
0.51389 0.64412 1
0.59589 0.65765 1
0.72581 0.67348 1
0.86865 0.69464 1
1 0.72838 1
0.23879 0.70511 1
0.30577 0.70791 1
0.36996 0.7123 1
0.4432 0.72461 1
0.53274 0.74145 1
0.62245 0.76405 1
0.74717 0.80096 1
0.89129 0.84154 1
1 0.88797 1
0.24017 0.78799 1
0.30759 0.7888 1
0.37985 0.79468 1
0.45952 0.8099 1
0.55323 0.83066 1
0.65099 0.85258 1
0.78614 0.89906 1
0.93189 0.96822 1
1 1 1
