One-Shot Anime/Ramayana - The Legend Of Prince Rama (Color Graded).cube
LUT_3D_SIZE 33
0.085999 0.11072 0.043283
0.11282 0.11297 0.037334
0.13994 0.11451 0.030751
0.16883 0.11549 0.023514
0.19797 0.11588 0.015732
0.22623 0.116 0.0083918
0.25273 0.11613 0.0025008
0.27695 0.11619 0
0.29945 0.1161 0
0.32122 0.11583 0
0.34342 0.11536 0
0.36701 0.11474 0
0.39227 0.11419 0
0.41846 0.11404 0.00071409
0.44416 0.11453 0.0040582
0.46809 0.11582 0.0074202
0.48989 0.11777 0.010496
0.51003 0.12011 0.013114
0.5294 0.12259 0.015196
0.5493 0.12504 0.016663
0.57147 0.12745 0.01744
0.59761 0.12989 0.017239
0.63005 0.13157 0.015682
0.66982 0.13256 0.012967
0.71364 0.1341 0.010016
0.75598 0.13643 0.0067874
0.79721 0.13921 0.0038096
0.83928 0.14252 0.0017244
0.88128 0.14584 0.0018152
0.92418 0.14932 0.0032323
0.9679 0.15271 0.0053433
1 0.15575 0.0072232
1 0.15854 0.0083326
0.086799 0.12144 0.042073
0.1134 0.12383 0.03606
0.14027 0.1253 0.0295
0.16892 0.12611 0.022252
0.1979 0.12624 0.014487
0.22617 0.12612 0.0073215
0.25267 0.12598 0.0015889
0.27686 0.12581 0
0.2993 0.12552 0
0.32101 0.12508 0
0.34315 0.12445 0
0.36675 0.12368 0
0.39215 0.12293 0
0.41859 0.12255 0.0009052
0.44459 0.12282 0.0043646
0.46879 0.12393 0.0078362
0.49076 0.12577 0.011002
0.51099 0.12806 0.013682
0.53036 0.13053 0.015797
0.55021 0.13303 0.017306
0.57231 0.13549 0.018091
0.59843 0.13792 0.017845
0.63052 0.14027 0.016102
0.67026 0.14163 0.013199
0.7143 0.14325 0.010172
0.75682 0.14566 0.0069491
0.79824 0.14851 0.0041194
0.84044 0.15189 0.0023144
0.88254 0.15529 0.0026514
0.92552 0.15884 0.0041366
0.96922 0.16227 0.0061699
1 0.16526 0.0078846
1 0.16798 0.0088877
0.087679 0.1323 0.040732
0.114 0.13484 0.03466
0.14058 0.13635 0.028123
0.16889 0.13698 0.020832
0.19772 0.13688 0.013161
0.22599 0.13653 0.0062173
0.25249 0.1361 0.00065162
0.27666 0.13564 0
0.29906 0.13512 0
0.32071 0.13447 0
0.34281 0.13367 0
0.36641 0.13272 0
0.39193 0.13178 0
0.41862 0.13116 0.0011377
0.44493 0.1312 0.0047224
0.46943 0.13211 0.0083005
0.49161 0.13382 0.011547
0.51194 0.13604 0.014278
0.53133 0.13848 0.016417
0.55114 0.141 0.017927
0.57317 0.14351 0.018709
0.59924 0.14601 0.018438
0.63128 0.14839 0.016635
0.67074 0.15063 0.013436
0.71498 0.15234 0.010352
0.75771 0.15483 0.0071601
0.79933 0.15779 0.0044884
0.84162 0.16125 0.0030209
0.88385 0.16478 0.0035361
0.92687 0.16843 0.0050389
0.97051 0.17189 0.0069489
1 0.17484 0.008475
1 0.17754 0.009367
0.088638 0.14325 0.039284
0.11466 0.14597 0.03317
0.14088 0.14761 0.026676
0.16879 0.14814 0.019332
0.19746 0.14788 0.011811
0.2257 0.1473 0.0050992
0.25218 0.14655 0
0.27635 0.14579 0
0.29871 0.145 0
0.32032 0.14413 0
0.34238 0.14314 0
0.36597 0.14202 0
0.3916 0.14086 0
0.41853 0.13999 0.001423
0.44518 0.13977 0.0051268
0.47001 0.14045 0.0088064
0.49242 0.142 0.012127
0.51287 0.14412 0.014902
0.53231 0.14652 0.017056
0.55209 0.14904 0.018561
0.57406 0.15158 0.019314
0.60007 0.15414 0.01899
0.63203 0.15667 0.01714
0.67162 0.15892 0.013841
0.7157 0.16146 0.010552
0.75864 0.16401 0.0074329
0.80049 0.16708 0.0049384
0.84286 0.17064 0.0038311
0.88521 0.17435 0.0044808
0.92825 0.17812 0.0059495
0.9718 0.18162 0.0076903
1 0.18453 0.0090089
1 0.18725 0.0097928
0.089697 0.15439 0.037769
0.11544 0.15738 0.03166
0.14119 0.15916 0.025182
0.16866 0.15967 0.017823
0.19714 0.15933 0.010492
0.22528 0.15855 0.00399
0.25173 0.15749 0
0.2759 0.15641 0
0.29823 0.15535 0
0.31981 0.15424 0
0.34183 0.15305 0
0.36541 0.15174 0
0.39113 0.15036 0
0.4183 0.14922 0.0017659
0.44532 0.1487 0.0055836
0.47052 0.14912 0.0093571
0.4932 0.15046 0.012746
0.51381 0.15245 0.015558
0.5333 0.1548 0.017721
0.55306 0.15731 0.019215
0.57497 0.15987 0.019931
0.60095 0.16247 0.019531
0.6329 0.1651 0.017604
0.67252 0.16748 0.014247
0.71667 0.17035 0.010879
0.75963 0.17341 0.0077715
0.80176 0.17661 0.0054767
0.84419 0.18029 0.0047421
0.88665 0.18416 0.0054974
0.92969 0.18804 0.0068835
0.97311 0.19156 0.0084117
1 0.19448 0.0095073
1 0.19725 0.010201
0.090935 0.16615 0.036222
0.11637 0.16937 0.030161
0.14154 0.17127 0.023661
0.16856 0.17183 0.016329
0.1968 0.17152 0.0091884
0.22475 0.17061 0.0028769
0.2511 0.1693 0
0.27527 0.16789 0
0.2976 0.16653 0
0.31915 0.16518 0
0.34114 0.16378 0
0.3647 0.16227 0
0.39048 0.16066 0
0.4179 0.15923 0.0021822
0.44531 0.15837 0.0061072
0.47095 0.15847 0.0099684
0.49396 0.15955 0.01342
0.51476 0.16137 0.016262
0.53434 0.16362 0.018426
0.5541 0.16609 0.019903
0.57595 0.16868 0.020577
0.6019 0.17132 0.020092
0.63388 0.17399 0.018043
0.6735 0.17655 0.014676
0.7179 0.17941 0.011336
0.76082 0.18318 0.0082412
0.80316 0.18674 0.0061409
0.84567 0.19057 0.0057768
0.88822 0.19462 0.0065928
0.93122 0.19857 0.0078424
0.97448 0.20209 0.0091259
1 0.20502 0.010003
1 0.20791 0.010638
0.092414 0.17894 0.034676
0.1175 0.18236 0.028664
0.14199 0.18435 0.022087
0.16852 0.18502 0.014851
0.19643 0.18479 0.0079108
0.22411 0.18382 0.0018065
0.25029 0.18236 0
0.27442 0.18071 0
0.29675 0.17906 0
0.31828 0.17745 0
0.34025 0.17583 0
0.36377 0.17411 0
0.3896 0.17226 0
0.41724 0.1705 0.0026978
0.4451 0.16926 0.0067228
0.47125 0.16895 0.010663
0.49468 0.1697 0.014168
0.51574 0.17128 0.017033
0.53545 0.17338 0.019193
0.55524 0.1758 0.020645
0.57704 0.1784 0.021268
0.60295 0.18108 0.020687
0.63496 0.18378 0.018511
0.6746 0.18647 0.015104
0.71926 0.18942 0.011869
0.76254 0.1932 0.0090051
0.80483 0.19783 0.0070094
0.84737 0.20195 0.0069719
0.88998 0.20618 0.0077881
0.93288 0.21018 0.0088326
0.97595 0.21369 0.0098303
1 0.21668 0.010509
1 0.21973 0.011145
0.094106 0.19302 0.033176
0.1188 0.19655 0.027133
0.14262 0.19864 0.020534
0.1686 0.19949 0.01349
0.19606 0.19933 0.0067537
0.22341 0.19835 0.00087899
0.24935 0.19685 0
0.27336 0.19508 0
0.29566 0.19325 0
0.31716 0.19142 0
0.3391 0.18955 0
0.36258 0.18761 0
0.38839 0.18551 0
0.41625 0.18339 0.0033375
0.44457 0.18171 0.0074545
0.47134 0.18093 0.011456
0.4953 0.18125 0.015002
0.51672 0.18251 0.01788
0.53663 0.18442 0.020024
0.55648 0.18673 0.021443
0.57826 0.18931 0.022002
0.60412 0.19201 0.021315
0.63615 0.19475 0.019017
0.67584 0.19755 0.015595
0.72084 0.20058 0.012467
0.76449 0.20458 0.0099169
0.80717 0.20937 0.0083273
0.84938 0.21465 0.0083743
0.89194 0.21916 0.0090778
0.93471 0.22318 0.0098453
0.97755 0.22672 0.010532
1 0.22984 0.011051
1 0.23312 0.011786
0.096499 0.20814 0.031677
0.12031 0.21206 0.025681
0.14349 0.21431 0.019154
0.16886 0.2154 0.01238
0.19574 0.21532 0.0058533
0.22269 0.21434 0.00021925
0.24833 0.21284 0
0.27214 0.21108 0
0.29434 0.20921 0
0.31577 0.20729 0
0.33763 0.20527 0
0.36104 0.20309 0
0.38679 0.20073 3.8472e-05
0.41481 0.19825 0.0041129
0.44361 0.19608 0.0083219
0.47109 0.19473 0.012368
0.49574 0.19452 0.01594
0.51765 0.19538 0.018816
0.53786 0.19702 0.020931
0.55783 0.19918 0.022299
0.5796 0.20169 0.022778
0.60542 0.20438 0.021968
0.63749 0.20714 0.019558
0.67731 0.21005 0.016161
0.72269 0.21323 0.013229
0.76682 0.21748 0.011018
0.8098 0.2226 0.0098982
0.85215 0.22803 0.010159
0.89425 0.23354 0.010505
0.93674 0.2379 0.010862
0.97932 0.24152 0.011241
1 0.24484 0.011695
1 0.2485 0.012586
0.099347 0.22463 0.030368
0.12206 0.22908 0.024476
0.1447 0.23151 0.018127
0.16933 0.23288 0.011646
0.19553 0.23293 0.0053624
0.22197 0.232 0
0.24728 0.23056 0
0.27085 0.22889 0
0.29289 0.22708 0
0.31417 0.2252 0
0.33587 0.22318 0
0.35912 0.22092 0
0.38472 0.21837 0.00093533
0.41279 0.21556 0.0050649
0.44204 0.21288 0.0093672
0.47031 0.21089 0.013443
0.49584 0.21003 0.017022
0.51844 0.21038 0.019879
0.53907 0.21165 0.021944
0.55926 0.21356 0.023238
0.58107 0.21593 0.023609
0.60687 0.21856 0.022663
0.639 0.22131 0.020169
0.67913 0.22427 0.016835
0.72487 0.2278 0.014214
0.76963 0.23244 0.01241
0.81283 0.23784 0.011813
0.85524 0.24346 0.012048
0.89726 0.2489 0.012131
0.93934 0.25399 0.011999
0.98131 0.25851 0.011991
1 0.26215 0.012488
1 0.26636 0.013563
0.10259 0.24233 0.029294
0.12448 0.24725 0.023559
0.14633 0.25027 0.017631
0.17011 0.25195 0.011431
0.19551 0.25224 0.0054145
0.22134 0.2515 0.00021177
0.24627 0.25021 0
0.26956 0.24871 0
0.29137 0.24708 0
0.31247 0.24532 0
0.33393 0.24341 0
0.35691 0.24125 0
0.38223 0.23876 0.0022304
0.41011 0.23589 0.0063236
0.43967 0.23282 0.01066
0.46875 0.2302 0.014764
0.49535 0.22857 0.018327
0.51891 0.22819 0.021136
0.54017 0.22891 0.023117
0.56071 0.23043 0.024293
0.58265 0.23255 0.024518
0.60846 0.23506 0.023433
0.64069 0.2378 0.020913
0.68124 0.24085 0.017735
0.72748 0.24484 0.015534
0.77302 0.24993 0.014161
0.81632 0.25554 0.014017
0.85867 0.26123 0.014063
0.90055 0.26666 0.013737
0.94258 0.27184 0.013281
0.98422 0.27685 0.013102
1 0.28217 0.01343
1 0.28721 0.014799
0.10632 0.26069 0.028685
0.12767 0.26618 0.023197
0.1484 0.27017 0.017806
0.17137 0.27227 0.01188
0.19581 0.27301 0.0061246
0.22091 0.27264 0.0011129
0.2454 0.27165 0
0.26839 0.27043 0
0.28992 0.26908 0
0.31074 0.26757 0
0.33194 0.26587 0
0.35461 0.26393 0.00039652
0.37959 0.26171 0.0040463
0.40706 0.25913 0.0081295
0.43656 0.25615 0.012359
0.46623 0.25317 0.016439
0.49393 0.2508 0.019935
0.51873 0.24951 0.022635
0.54092 0.24942 0.024464
0.56202 0.25032 0.025458
0.58426 0.252 0.025497
0.61019 0.25431 0.024294
0.64261 0.25703 0.02183
0.68372 0.26027 0.018932
0.7307 0.26477 0.017259
0.77695 0.27025 0.016327
0.82026 0.27585 0.016402
0.86247 0.28149 0.016073
0.90422 0.28695 0.015314
0.94628 0.29231 0.014691
0.98785 0.29769 0.014481
1 0.30355 0.015045
1 0.31014 0.016683
0.11056 0.27914 0.028718
0.13151 0.28507 0.023608
0.1515 0.28977 0.018542
0.17326 0.29291 0.013054
0.19667 0.29443 0.0075888
0.2209 0.29471 0.0027788
0.24481 0.29421 0
0.26744 0.29337 0
0.28868 0.29237 0
0.30919 0.29122 0
0.33008 0.28989 0
0.35243 0.28831 0.0028107
0.37708 0.28648 0.0065185
0.40412 0.28436 0.010632
0.43321 0.28182 0.014737
0.46303 0.27894 0.01863
0.49152 0.27624 0.021954
0.51753 0.27423 0.024416
0.54094 0.27323 0.025977
0.56293 0.2733 0.026703
0.58574 0.27437 0.026514
0.612 0.27637 0.025228
0.64479 0.27912 0.022928
0.68665 0.28268 0.020458
0.7347 0.28752 0.019295
0.78114 0.29318 0.018866
0.82448 0.29861 0.018779
0.86658 0.30413 0.017989
0.90829 0.3096 0.016955
0.95053 0.31524 0.016252
0.99225 0.32118 0.016103
1 0.32766 0.017167
1 0.33481 0.019385
0.11525 0.29762 0.029361
0.13582 0.30374 0.024546
0.15533 0.30883 0.019789
0.17588 0.31304 0.01484
0.19838 0.3154 0.0097094
0.22167 0.31664 0.0051845
0.24476 0.31701 0.0018716
0.26689 0.31676 9.0915e-05
0.28779 0.31624 0
0.30798 0.31552 0.00082443
0.32854 0.31461 0.0029464
0.35057 0.31347 0.0060076
0.37489 0.31208 0.0097939
0.40154 0.31041 0.013941
0.43011 0.30836 0.017983
0.4597 0.30581 0.021569
0.48857 0.30312 0.024556
0.51548 0.30078 0.026661
0.54009 0.2992 0.027821
0.56322 0.29865 0.028141
0.58692 0.29923 0.027637
0.61385 0.301 0.026273
0.64725 0.30391 0.024234
0.69005 0.30787 0.022271
0.73908 0.31295 0.021447
0.78542 0.31843 0.021417
0.82879 0.32357 0.020951
0.87085 0.32882 0.019843
0.91275 0.33428 0.018652
0.95538 0.3403 0.017963
0.99742 0.34668 0.018242
1 0.35363 0.019921
1 0.36117 0.0226
0.12016 0.316 0.03027
0.14047 0.32217 0.025718
0.15961 0.32752 0.02126
0.17955 0.33229 0.016701
0.20087 0.33575 0.012125
0.22329 0.33783 0.00801
0.24557 0.33899 0.00505
0.26706 0.33947 0.0035352
0.28748 0.33958 0.0034087
0.30727 0.33948 0.004541
0.32747 0.33911 0.0067811
0.34914 0.33849 0.0099661
0.37309 0.33757 0.013859
0.39937 0.33629 0.018042
0.42744 0.33462 0.022002
0.45657 0.33242 0.0253
0.48552 0.32985 0.0278
0.51305 0.32738 0.029433
0.53871 0.32551 0.030149
0.56308 0.32463 0.030018
0.58795 0.32507 0.029132
0.61584 0.32707 0.027621
0.65006 0.33055 0.025805
0.69379 0.33505 0.024241
0.74345 0.34024 0.023562
0.78985 0.34521 0.023607
0.83293 0.35005 0.022913
0.87518 0.355 0.02158
0.9176 0.36055 0.020346
0.96063 0.3667 0.020045
1 0.37329 0.02094
1 0.38054 0.023213
1 0.38835 0.026017
0.12515 0.33446 0.031138
0.14534 0.34059 0.02684
0.16423 0.34611 0.022675
0.18374 0.35129 0.018489
0.20396 0.35576 0.014498
0.22554 0.35854 0.010867
0.24702 0.36034 0.0083539
0.26784 0.36136 0.0072145
0.28781 0.36192 0.0073727
0.30727 0.36224 0.008725
0.32713 0.36243 0.011148
0.34838 0.36246 0.014498
0.37184 0.36223 0.018516
0.39764 0.36148 0.022744
0.42519 0.3602 0.02659
0.45375 0.35831 0.029591
0.48254 0.35591 0.031563
0.5105 0.35342 0.032626
0.53708 0.35138 0.032871
0.56273 0.35029 0.032361
0.58898 0.35061 0.031174
0.61819 0.35287 0.029544
0.65348 0.35714 0.027883
0.69795 0.36258 0.026386
0.74755 0.36817 0.02573
0.79387 0.37285 0.025595
0.83685 0.37747 0.024666
0.87956 0.38227 0.023236
0.92268 0.38772 0.022364
0.96611 0.39381 0.022627
1 0.40058 0.024203
1 0.40812 0.026865
1 0.41577 0.029285
0.13018 0.35398 0.031475
0.15038 0.35984 0.027495
0.16913 0.36533 0.023681
0.18831 0.37065 0.019925
0.20795 0.37541 0.016451
0.22821 0.379 0.013559
0.24894 0.38117 0.011564
0.26908 0.38265 0.010848
0.28856 0.38365 0.011343
0.30773 0.38431 0.012984
0.32737 0.38482 0.015664
0.34838 0.38526 0.019237
0.37149 0.38554 0.023419
0.39672 0.38547 0.027685
0.42356 0.38485 0.031405
0.4514 0.38352 0.034099
0.47976 0.38146 0.035626
0.50791 0.37909 0.03613
0.53528 0.37695 0.035905
0.56221 0.37563 0.035078
0.59 0.37579 0.033734
0.62084 0.37813 0.032112
0.65751 0.3829 0.030582
0.70273 0.38915 0.028921
0.75181 0.39524 0.02825
0.79773 0.4004 0.027653
0.84091 0.40512 0.026472
0.88381 0.41005 0.025351
0.92781 0.41544 0.025037
0.97184 0.42166 0.025967
1 0.4288 0.028108
1 0.43627 0.030716
1 0.44311 0.032216
0.13526 0.3748 0.031216
0.15559 0.38065 0.02741
0.1743 0.38621 0.023856
0.19319 0.39169 0.020466
0.21229 0.39671 0.017465
0.23146 0.40089 0.015213
0.25102 0.4036 0.013905
0.27045 0.40522 0.013779
0.28947 0.40623 0.014817
0.30839 0.40691 0.016908
0.32791 0.40743 0.01997
0.34885 0.40787 0.023868
0.37178 0.40825 0.028278
0.39659 0.40863 0.032558
0.42279 0.40857 0.036123
0.44992 0.40774 0.038539
0.47763 0.40626 0.03968
0.50562 0.40436 0.03977
0.53347 0.4025 0.039168
0.56155 0.40119 0.038154
0.59098 0.40127 0.036834
0.62366 0.40361 0.035358
0.66189 0.40857 0.033975
0.70774 0.41516 0.032169
0.75643 0.42162 0.031226
0.80187 0.42731 0.030321
0.84508 0.4324 0.029185
0.88826 0.438 0.028482
0.93311 0.44418 0.028822
0.97779 0.45107 0.030329
1 0.4583 0.03266
1 0.46503 0.034577
1 0.47035 0.034957
0.14036 0.39612 0.030923
0.16096 0.4019 0.027234
0.1797 0.40753 0.023873
0.19838 0.41321 0.020771
0.21696 0.41852 0.018186
0.23536 0.42306 0.016484
0.25354 0.42658 0.015914
0.2721 0.42863 0.016359
0.29058 0.42996 0.017863
0.30917 0.43092 0.020332
0.32851 0.43169 0.02369
0.34931 0.43237 0.027796
0.37204 0.43294 0.032326
0.39656 0.43324 0.036689
0.42228 0.43308 0.04024
0.44886 0.43229 0.042535
0.47615 0.43094 0.043507
0.50407 0.42922 0.04346
0.53237 0.42761 0.04278
0.56136 0.42679 0.04175
0.59226 0.42736 0.040579
0.62665 0.43004 0.039369
0.66631 0.4351 0.038158
0.71265 0.4418 0.036113
0.7612 0.4484 0.034842
0.80624 0.45441 0.033968
0.84962 0.46005 0.033184
0.89363 0.46662 0.033079
0.93897 0.47431 0.034133
0.98383 0.4819 0.035847
1 0.48894 0.037633
1 0.49397 0.038416
1 0.49751 0.037668
0.14536 0.41802 0.030782
0.16634 0.42362 0.027167
0.18522 0.42925 0.023953
0.20377 0.43504 0.021114
0.22194 0.44058 0.018942
0.23968 0.44549 0.01777
0.25702 0.44955 0.017755
0.27422 0.45268 0.018837
0.29203 0.45456 0.020767
0.31023 0.4559 0.023564
0.32933 0.4569 0.027173
0.34995 0.45771 0.031429
0.37247 0.45835 0.035985
0.39665 0.45875 0.040262
0.42189 0.45878 0.043666
0.44793 0.45835 0.04582
0.47481 0.4575 0.046683
0.50262 0.45636 0.046587
0.53137 0.45521 0.045995
0.56144 0.45452 0.045262
0.59396 0.45502 0.044545
0.63005 0.45768 0.043792
0.67095 0.46286 0.04266
0.71743 0.46943 0.040638
0.766 0.47597 0.039299
0.81088 0.48266 0.038724
0.85472 0.48943 0.038553
0.89964 0.49721 0.039172
0.94504 0.50564 0.040599
0.98957 0.51311 0.042002
1 0.51853 0.042746
1 0.52237 0.042174
1 0.52496 0.040195
0.15016 0.44081 0.030976
0.17165 0.44616 0.027354
0.19077 0.45169 0.024235
0.20929 0.4575 0.02165
0.22714 0.46319 0.019898
0.24437 0.4684 0.01923
0.26108 0.47294 0.019701
0.27757 0.47669 0.021204
0.29416 0.4797 0.023616
0.31176 0.48162 0.026641
0.33043 0.48305 0.030353
0.35069 0.48413 0.034625
0.37289 0.48488 0.039125
0.39679 0.48526 0.043305
0.42172 0.48538 0.046618
0.44745 0.48528 0.04876
0.47411 0.48495 0.049714
0.50186 0.48445 0.049799
0.53093 0.48386 0.049457
0.56188 0.48353 0.049053
0.59588 0.48421 0.048692
0.63371 0.48701 0.04811
0.67582 0.49232 0.046924
0.72243 0.49885 0.045049
0.77114 0.50619 0.04375
0.81615 0.51402 0.043847
0.86048 0.52178 0.044568
0.90598 0.52997 0.045832
0.95093 0.5375 0.047294
0.99412 0.54331 0.048205
1 0.54767 0.047653
1 0.55069 0.045727
1 0.55245 0.042587
0.15465 0.46454 0.031549
0.17674 0.46953 0.027823
0.19622 0.47483 0.02476
0.21481 0.48055 0.022414
0.23248 0.48631 0.021034
0.24936 0.49176 0.020778
0.2656 0.49667 0.021627
0.28147 0.5009 0.023439
0.29746 0.50442 0.026067
0.31392 0.50734 0.029357
0.332 0.50927 0.033092
0.3518 0.51071 0.037292
0.37358 0.51181 0.041688
0.39709 0.51257 0.045787
0.42177 0.51305 0.049112
0.44735 0.51334 0.051405
0.47395 0.51348 0.052654
0.5017 0.51353 0.053122
0.53094 0.51346 0.053152
0.56264 0.51348 0.053016
0.59798 0.51424 0.052827
0.63744 0.51677 0.052474
0.6807 0.52184 0.051432
0.72778 0.52855 0.049852
0.77715 0.53688 0.048744
0.82252 0.54588 0.049327
0.86698 0.55491 0.050498
0.91212 0.56323 0.051987
0.95576 0.57011 0.053019
0.99771 0.57532 0.052898
1 0.57854 0.051322
1 0.58024 0.048474
1 0.5809 0.044578
0.1587 0.48901 0.032456
0.18146 0.49354 0.028562
0.20142 0.49851 0.025518
0.2202 0.50405 0.023339
0.23783 0.50977 0.022231
0.25449 0.51531 0.022278
0.27037 0.5204 0.023392
0.28579 0.52492 0.025394
0.30124 0.52881 0.028131
0.31715 0.53215 0.031467
0.33413 0.53503 0.035322
0.35338 0.537 0.039484
0.37476 0.53856 0.043844
0.39794 0.53986 0.047992
0.42239 0.54095 0.051489
0.44786 0.54192 0.054075
0.47438 0.54282 0.055707
0.50208 0.54361 0.056579
0.53134 0.54418 0.056909
0.56344 0.54444 0.056945
0.59983 0.54494 0.056926
0.64084 0.54694 0.056776
0.68541 0.55165 0.0561
0.73349 0.55869 0.054746
0.78357 0.56742 0.053824
0.82942 0.57687 0.054738
0.87366 0.58556 0.056268
0.91826 0.59387 0.057663
0.96042 0.60069 0.057819
1 0.60565 0.056546
1 0.60883 0.054012
1 0.61015 0.050295
1 0.61043 0.045788
0.16235 0.51413 0.033617
0.18577 0.51821 0.02953
0.20629 0.52274 0.026414
0.22534 0.52795 0.024306
0.24304 0.53344 0.023388
0.25959 0.53888 0.023633
0.27524 0.54399 0.024907
0.29033 0.54864 0.027022
0.30534 0.55279 0.029826
0.32083 0.55646 0.033198
0.33735 0.55978 0.037074
0.35556 0.56279 0.041417
0.37651 0.56499 0.045894
0.39943 0.56696 0.050252
0.42374 0.56884 0.054058
0.44918 0.57066 0.056989
0.47568 0.57242 0.058969
0.50328 0.57398 0.060181
0.53229 0.57521 0.060793
0.5642 0.57597 0.060964
0.60119 0.57649 0.060965
0.6438 0.5781 0.06085
0.68989 0.58213 0.060584
0.73922 0.58891 0.059435
0.79 0.59763 0.058743
0.83604 0.60625 0.060021
0.88034 0.61479 0.06155
0.92406 0.62266 0.062368
0.96485 0.62894 0.061577
1 0.63356 0.059358
1 0.6367 0.05594
1 0.6384 0.051558
1 0.63891 0.046574
0.16597 0.5397 0.034728
0.18963 0.54363 0.030518
0.2107 0.5476 0.027286
0.23016 0.55229 0.025206
0.24803 0.5574 0.024402
0.26459 0.56258 0.024782
0.28013 0.56758 0.026181
0.29503 0.57224 0.028402
0.30976 0.57654 0.031297
0.32492 0.58048 0.034756
0.34111 0.58421 0.03872
0.35898 0.58784 0.043184
0.379 0.59139 0.04802
0.40173 0.59427 0.052666
0.42597 0.59709 0.056819
0.45133 0.59981 0.06016
0.4777 0.60229 0.062596
0.5051 0.60446 0.064168
0.53384 0.60628 0.064953
0.5654 0.60769 0.065118
0.60251 0.60865 0.064985
0.64627 0.61013 0.064767
0.69392 0.61345 0.064798
0.74472 0.61971 0.063961
0.79584 0.62739 0.063727
0.84239 0.63551 0.065042
0.88668 0.6433 0.066161
0.92926 0.65026 0.066145
0.96894 0.65591 0.064496
1 0.66011 0.061429
1 0.66298 0.057248
1 0.66487 0.052389
1 0.66564 0.047082
0.16962 0.56566 0.035417
0.19328 0.56962 0.031204
0.21458 0.57324 0.02799
0.23459 0.5773 0.025938
0.25276 0.58189 0.025249
0.26946 0.58668 0.025773
0.28502 0.59144 0.027334
0.29986 0.59602 0.0297
0.31446 0.60043 0.032697
0.32945 0.60469 0.036238
0.34551 0.60891 0.040288
0.36324 0.61324 0.044897
0.38309 0.61767 0.050013
0.40491 0.62211 0.055268
0.42907 0.62579 0.059916
0.45428 0.6294 0.063795
0.48043 0.63274 0.066688
0.50757 0.63567 0.068524
0.53602 0.63817 0.069365
0.56715 0.64024 0.069434
0.60395 0.64172 0.069133
0.64831 0.64313 0.068964
0.69755 0.64548 0.069247
0.74969 0.65069 0.068835
0.80136 0.65815 0.068711
0.84808 0.66543 0.069785
0.89226 0.67205 0.070235
0.93379 0.67787 0.069274
0.97256 0.68265 0.066716
1 0.68626 0.062837
1 0.68878 0.058032
1 0.6905 0.052753
1 0.69155 0.04731
0.17332 0.59206 0.035494
0.19694 0.59606 0.031402
0.21812 0.59963 0.028421
0.23854 0.60311 0.026524
0.25714 0.60703 0.026016
0.27413 0.61133 0.026737
0.28989 0.61583 0.028435
0.30487 0.62038 0.030887
0.31956 0.62495 0.03395
0.33457 0.62953 0.037602
0.35063 0.63421 0.041834
0.36834 0.63913 0.046717
0.38812 0.64434 0.052203
0.4098 0.6498 0.057942
0.4331 0.65527 0.063367
0.45824 0.65999 0.067743
0.48408 0.66438 0.071025
0.51078 0.66815 0.073051
0.53876 0.67125 0.07392
0.56943 0.67391 0.073927
0.60571 0.67597 0.073524
0.6497 0.67674 0.073848
0.70053 0.67812 0.074376
0.7545 0.68263 0.074196
0.80663 0.68953 0.073894
0.85304 0.69613 0.074457
0.89681 0.70166 0.073933
0.93742 0.70617 0.071794
0.97554 0.70979 0.068267
1 0.71266 0.063659
1 0.7147 0.058356
1 0.7161 0.052762
1 0.71714 0.047228
0.17706 0.61873 0.035014
0.20057 0.62273 0.031218
0.22158 0.62621 0.028615
0.24189 0.62949 0.027118
0.26106 0.6328 0.026786
0.27855 0.63666 0.027601
0.29473 0.6409 0.029404
0.31001 0.64534 0.031998
0.32493 0.64994 0.035232
