One-Shot Anime/Ramayana - The Legend Of Prince Rama (Color Graded) light.cube
LUT_3D_SIZE 5
0.17995 0.064327 0
0.32737 0.040684 0.009218
0.52722 0.054201 0
0.86761 0.1218 0.017436
1 0.17943 0
0.088696 0.35509 0.05031
0.26767 0.3372 0.011752
0.566 0.31432 0
0.9706 0.39017 0.010116
1 0.42525 0
0.068669 0.60412 0.062414
0.28092 0.61673 0.039982
0.55795 0.63281 0
0.99743 0.64807 0
1 0.68045 0
0.070901 0.85437 0.041599
0.28819 0.86628 0.037479
0.6079 0.887 0
0.9928 0.93121 0
1 0.9292 0
0.075873 1 0.029319
0.29022 1 0.011849
0.67647 1 0
1 1 0
1 1 0
0.15778 0.095347 0.32376
0.32952 0.059015 0.34417
0.58206 0.061371 0.39169
0.81527 0.10048 0.36997
1 0.17604 0.34952
0.070279 0.36564 0.3685
0.2994 0.36182 0.35433
0.60488 0.31769 0.42051
0.91266 0.35298 0.39523
1 0.41547 0.34805
0.071643 0.60903 0.35857
0.27535 0.60592 0.35216
0.58832 0.60118 0.39625
0.96085 0.59867 0.36681
1 0.64603 0.34503
0.080955 0.86744 0.33815
0.25434 0.86034 0.3662
0.57986 0.84571 0.36369
0.98407 0.88889 0.33645
1 0.8918 0.31125
0.07911 1 0.35867
0.25498 1 0.38328
0.61754 1 0.39369
0.99471 1 0.33419
1 1 0.30112
0.18929 0.11037 0.54815
0.36305 0.070404 0.57393
0.60476 0.09698 0.57669
0.8079 0.12498 0.61244
1 0.15796 0.62842
0.11656 0.37105 0.55912
0.32001 0.349 0.6147
0.63518 0.31676 0.6041
0.86343 0.35252 0.623
1 0.40958 0.61376
0.1126 0.59446 0.53793
0.31714 0.59049 0.59117
0.59081 0.59658 0.62139
0.90419 0.56188 0.60288
1 0.61575 0.60508
0.11495 0.89523 0.54667
0.32137 0.8854 0.59507
0.57986 0.88288 0.67637
0.91225 0.89518 0.59785
1 0.90512 0.63031
0.099754 1 0.58102
0.32028 1 0.61872
0.60224 1 0.69045
0.95637 1 0.65585
1 1 0.65302
0.22384 0.10743 0.75712
0.39611 0.096278 0.77586
0.61726 0.11546 0.82463
0.90747 0.14398 0.88418
1 0.15352 0.92501
0.21543 0.36156 0.7689
0.39256 0.35674 0.80426
0.61532 0.35341 0.84536
0.92442 0.3594 0.89977
1 0.39608 0.93675
0.20598 0.60486 0.78412
0.40246 0.62865 0.8293
0.5929 0.61415 0.86056
0.93145 0.58606 0.96161
1 0.63426 0.94872
0.20565 0.92471 0.83329
0.41013 0.92009 0.88234
0.62506 0.94076 0.9284
0.92523 0.95266 1
1 0.9583 0.99337
0.19745 1 0.82329
0.41997 1 0.91317
0.64158 1 0.96688
0.94539 1 1
1 1 0.97328
0.22861 0.10885 0.89339
0.41422 0.10174 0.9102
0.65685 0.12393 0.99667
0.92148 0.16191 1
1 0.16466 1
0.23422 0.35819 0.90605
0.40727 0.36198 0.91401
0.68587 0.35276 0.98856
0.94096 0.37557 1
1 0.41225 1
0.23688 0.6407 0.96177
0.41642 0.64457 0.97516
0.64975 0.65795 1
0.96804 0.61748 1
1 0.64898 1
0.23906 0.92666 1
0.45217 0.95243 1
0.66451 0.95592 1
0.95585 0.96066 1
1 0.9354 1
0.25045 1 0.99712
0.46996 1 1
0.65073 1 1
0.96138 1 1
1 1 1
