One-Shot Anime/Ramayana - The Legend Of Prince Rama (Color Graded) light.cube
LUT_3D_SIZE 9
0.17995 0.064327 0
0.25641 0.04744 0.010829
0.32737 0.040684 0.009218
0.42289 0.043955 0
0.52722 0.054201 0
0.68056 0.079706 0.023009
0.86761 0.1218 0.017436
1 0.15652 0
1 0.17943 0
0.13452 0.20631 0.013631
0.20957 0.18322 0.023537
0.30343 0.15435 0.005492
0.42888 0.14172 0
0.55037 0.15583 0
0.71909 0.20265 0.019086
0.90842 0.24253 0.0064929
1 0.281 0
1 0.29364 0
0.088696 0.35509 0.05031
0.15407 0.34562 0.050366
0.26767 0.3372 0.011752
0.42065 0.33148 0
0.566 0.31432 0
0.7762 0.32351 0.018858
0.9706 0.39017 0.010116
1 0.4082 0
1 0.42525 0
0.073642 0.48918 0.060854
0.15481 0.49037 0.058859
0.27542 0.49777 0.034212
0.41166 0.49945 0
0.54711 0.48654 0
0.82046 0.51362 0
0.99165 0.51206 0
1 0.53367 0
1 0.55689 0
0.068669 0.60412 0.062414
0.16466 0.60867 0.053244
0.28092 0.61673 0.039982
0.4095 0.61611 0.014351
0.55795 0.63281 0
0.8213 0.65189 0
0.99743 0.64807 0
1 0.65894 0
1 0.68045 0
0.067875 0.7275 0.05333
0.17349 0.73266 0.037284
0.28103 0.73569 0.035569
0.42199 0.74642 0.015325
0.58689 0.7716 0
0.8356 0.7964 0
0.99164 0.79634 0
1 0.79146 0
1 0.80271 0
0.070901 0.85437 0.041599
0.17624 0.858 0.031327
0.28819 0.86628 0.037479
0.43056 0.87307 0.0096207
0.6079 0.887 0
0.83953 0.92576 0
0.9928 0.93121 0
1 0.93451 0
1 0.9292 0
0.076127 0.99382 0.0345
0.18067 0.99807 0.029014
0.29155 0.99981 0.030672
0.42868 1 0.00035481
0.64461 1 0
0.85276 1 0
0.99702 1 0
1 1 0
1 1 0
0.075873 1 0.029319
0.17733 1 0.018633
0.29022 1 0.011849
0.45415 1 0
0.67647 1 0
0.86471 1 0
1 1 0
1 1 0
1 1 0
0.1587 0.074237 0.22433
0.23825 0.061628 0.21886
0.32274 0.048899 0.21234
0.43415 0.033296 0.23619
0.57641 0.044374 0.2562
0.71855 0.076049 0.25828
0.83166 0.10308 0.2484
0.96216 0.13835 0.22143
1 0.18089 0.18632
0.12569 0.2034 0.23511
0.20358 0.18571 0.23117
0.29039 0.16392 0.24003
0.42983 0.15218 0.25466
0.60016 0.1597 0.26215
0.74498 0.18071 0.27021
0.87308 0.20725 0.25909
1 0.26919 0.2265
1 0.28824 0.19785
0.091984 0.36016 0.22503
0.16969 0.3601 0.22008
0.26527 0.3583 0.24128
0.41825 0.34196 0.26919
0.59687 0.31313 0.27265
0.76836 0.30174 0.2791
0.94374 0.36221 0.25742
1 0.38639 0.22334
1 0.40582 0.20097
0.086333 0.49824 0.23771
0.17122 0.49815 0.23825
0.26685 0.4997 0.24817
0.40445 0.50444 0.25716
0.56289 0.49381 0.27957
0.80157 0.48551 0.28732
0.97585 0.49246 0.25265
1 0.52032 0.22932
1 0.55039 0.2116
0.083495 0.6119 0.24214
0.16577 0.60832 0.24597
0.26774 0.60395 0.24395
0.40799 0.60939 0.24269
0.55624 0.61469 0.26883
0.80597 0.61483 0.2693
0.99291 0.61909 0.23901
1 0.63843 0.22299
1 0.66864 0.20877
0.074214 0.73841 0.25085
0.15521 0.73202 0.25586
0.26896 0.73002 0.24112
0.41871 0.73993 0.23454
0.55145 0.73943 0.25481
0.8283 0.75133 0.24174
0.9946 0.76096 0.22094
1 0.7672 0.21361
1 0.78646 0.20148
0.064035 0.85995 0.25394
0.14982 0.85593 0.25779
0.27485 0.85831 0.2337
0.41732 0.85887 0.22055
0.55781 0.85862 0.23559
0.85024 0.89112 0.21195
1 0.90616 0.20216
1 0.91408 0.19395
1 0.91318 0.18665
0.058417 0.99545 0.25781
0.14644 0.99238 0.25933
0.273 0.98776 0.22786
0.41069 0.98216 0.20784
0.58907 1 0.20923
0.86116 1 0.19213
1 1 0.18216
1 1 0.17095
1 1 0.16323
0.053411 1 0.26149
0.1482 1 0.26255
0.26642 1 0.24603
0.40644 1 0.21795
0.6259 1 0.19308
0.87053 1 0.18342
1 1 0.17108
1 1 0.15759
1 1 0.1484
0.15778 0.095347 0.32376
0.23641 0.078384 0.33258
0.32952 0.059015 0.34417
0.46632 0.047924 0.36746
0.58206 0.061371 0.39169
0.71461 0.083904 0.38342
0.81527 0.10048 0.36997
0.93844 0.13035 0.35203
1 0.17604 0.34952
0.11908 0.20564 0.35084
0.19745 0.18704 0.35074
0.30943 0.16954 0.35051
0.45973 0.1593 0.38153
0.60317 0.16173 0.41529
0.73693 0.18063 0.39399
0.84478 0.20309 0.37399
0.98915 0.25239 0.35706
1 0.28189 0.33847
0.070279 0.36564 0.3685
0.16157 0.36518 0.36003
0.2994 0.36182 0.35433
0.44074 0.34204 0.38681
0.60488 0.31769 0.42051
0.75941 0.31132 0.41217
0.91266 0.35298 0.39523
1 0.38856 0.36485
1 0.41547 0.34805
0.068334 0.49887 0.36639
0.1663 0.50236 0.35335
0.28614 0.50078 0.35035
0.42372 0.48579 0.38365
0.58321 0.48205 0.40651
0.77119 0.47166 0.40674
0.94802 0.47085 0.38577
1 0.50596 0.36509
1 0.54216 0.35794
0.071643 0.60903 0.35857
0.16604 0.6124 0.34839
0.27535 0.60592 0.35216
0.41801 0.60042 0.37477
0.58832 0.60118 0.39625
0.76649 0.60731 0.39544
0.96085 0.59867 0.36681
1 0.61949 0.352
1 0.64603 0.34503
0.076883 0.73774 0.3439
0.16311 0.7394 0.34566
0.2648 0.7352 0.36029
0.41952 0.73174 0.36479
0.58072 0.72439 0.37895
0.7858 0.73151 0.39205
0.97559 0.74374 0.35326
1 0.74892 0.33898
1 0.76458 0.32772
0.080955 0.86744 0.33815
0.15949 0.86785 0.3513
0.25434 0.86034 0.3662
0.41314 0.84864 0.35076
0.57986 0.84571 0.36369
0.80644 0.86859 0.37321
0.98407 0.88889 0.33645
1 0.89273 0.32008
1 0.8918 0.31125
0.084359 1 0.34599
0.15244 1 0.36293
0.24547 0.99729 0.37581
0.40297 0.99394 0.36299
0.59483 0.99518 0.3704
0.83108 1 0.363
0.9947 1 0.32639
1 1 0.30539
1 1 0.29641
0.07911 1 0.35867
0.15514 1 0.37487
0.25498 1 0.38328
0.39837 1 0.38989
0.61754 1 0.39369
0.84585 1 0.36626
0.99471 1 0.33419
1 1 0.30896
1 1 0.30112
0.17321 0.1096 0.44271
0.24988 0.086019 0.45888
0.34544 0.060532 0.47459
0.4782 0.060969 0.48312
0.59774 0.086571 0.48935
0.69634 0.10333 0.5012
0.79965 0.10659 0.48559
0.94936 0.12239 0.48718
1 0.16257 0.50654
0.12368 0.21907 0.46428
0.2019 0.19783 0.47725
0.31918 0.17781 0.48872
0.49636 0.17072 0.49962
0.61734 0.17981 0.51646
0.71378 0.19327 0.52093
0.81508 0.21324 0.50218
0.98917 0.25858 0.49388
1 0.27506 0.50201
0.081414 0.36625 0.47945
0.16511 0.36117 0.49785
0.29725 0.35155 0.50337
0.47891 0.33581 0.50254
0.61992 0.30699 0.52946
0.74514 0.31699 0.53405
0.87799 0.35425 0.52057
1 0.38714 0.50142
1 0.41482 0.49423
0.07909 0.49122 0.46558
0.16802 0.48989 0.48733
0.293 0.49488 0.4955
0.46079 0.49007 0.50182
0.59262 0.4744 0.5264
0.76269 0.45274 0.53478
0.91784 0.4587 0.52284
1 0.48671 0.49615
1 0.53029 0.48186
0.078889 0.59963 0.45244
0.16864 0.59959 0.46965
0.29553 0.60196 0.48263
0.45078 0.60132 0.51386
0.58685 0.59467 0.52861
0.74641 0.60136 0.51801
0.92117 0.58286 0.51118
1 0.58932 0.47799
1 0.62383 0.46897
0.078947 0.72706 0.43655
0.17436 0.73217 0.4491
0.29803 0.73836 0.46807
0.43384 0.72059 0.51222
0.59128 0.71075 0.52452
0.76295 0.72346 0.51061
0.91624 0.73199 0.49129
1 0.72918 0.44935
1 0.73959 0.4455
0.08988 0.87685 0.43491
0.1811 0.8813 0.44632
0.28606 0.87302 0.4724
0.41384 0.85698 0.52076
0.59166 0.85607 0.53199
0.77987 0.85754 0.50614
0.94124 0.882 0.48176
1 0.88951 0.43978
1 0.88358 0.43523
0.093644 1 0.44811
0.17754 1 0.45507
0.28034 1 0.48716
0.41849 1 0.53888
0.59264 1 0.55734
0.79144 1 0.51374
0.96167 1 0.49103
1 1 0.46232
1 1 0.45495
0.092403 1 0.46161
0.18486 1 0.46962
0.28128 1 0.50201
0.4284 1 0.54128
0.60544 1 0.56163
0.8087 1 0.52187
0.97859 1 0.50373
1 1 0.49044
1 1 0.47583
0.18929 0.11037 0.54815
0.26877 0.086835 0.56167
0.36305 0.070404 0.57393
0.48002 0.074444 0.58183
0.60476 0.09698 0.57669
0.7054 0.11818 0.58214
0.8079 0.12498 0.61244
0.96286 0.13989 0.6438
1 0.15796 0.62842
0.14611 0.22241 0.55527
0.23328 0.2028 0.57981
0.34548 0.18888 0.59844
0.4909 0.18175 0.59793
0.62957 0.19257 0.58621
0.71701 0.20272 0.5958
0.82047 0.22423 0.62359
0.99085 0.25727 0.63865
1 0.27305 0.61764
0.11656 0.37105 0.55912
0.2067 0.36631 0.58881
0.32001 0.349 0.6147
0.47699 0.33395 0.61581
0.63518 0.31676 0.6041
0.74139 0.32192 0.6149
0.86343 0.35252 0.623
1 0.389 0.61805
1 0.40958 0.61376
0.11588 0.48301 0.55537
0.20322 0.48224 0.58376
0.30472 0.48374 0.60549
0.47245 0.48645 0.60993
0.61251 0.47471 0.61586
0.7503 0.44692 0.62196
0.89529 0.45078 0.61516
1 0.48001 0.61046
1 0.52263 0.60748
0.1126 0.59446 0.53793
0.20351 0.58617 0.56653
0.31714 0.59049 0.59117
0.47306 0.60808 0.60756
0.59081 0.59658 0.62139
0.72808 0.58232 0.61341
0.90419 0.56188 0.60288
1 0.57229 0.6003
1 0.61575 0.60508
0.10598 0.72856 0.53401
0.20243 0.7303 0.55789
0.32746 0.73322 0.58759
0.46575 0.72521 0.61896
0.58145 0.71953 0.63743
0.73102 0.72229 0.60516
0.89037 0.72242 0.58475
1 0.71632 0.5968
1 0.73099 0.60778
0.11495 0.89523 0.54667
0.20539 0.89125 0.56838
0.32137 0.8854 0.59507
0.46627 0.88539 0.645
0.57986 0.88288 0.67637
0.73564 0.88161 0.63398
0.91225 0.89518 0.59785
1 0.91252 0.61192
1 0.90512 0.63031
0.1017 1 0.56619
0.19937 1 0.58358
0.32445 1 0.61032
0.46704 1 0.6601
0.58777 1 0.68715
0.75426 1 0.66616
0.94623 1 0.63597
1 1 0.63347
1 1 0.64683
0.099754 1 0.58102
0.20608 1 0.59933
0.32028 1 0.61872
0.46876 1 0.66608
0.60224 1 0.69045
0.77546 1 0.68304
0.95637 1 0.65585
1 1 0.64394
1 1 0.65302
0.21362 0.10664 0.67668
0.28958 0.096197 0.68555
0.38493 0.088867 0.6912
0.49023 0.09118 0.70385
0.59872 0.10378 0.71252
0.74052 0.12487 0.73434
0.88856 0.14189 0.76817
0.98338 0.14732 0.80368
1 0.15573 0.81587
0.19668 0.22008 0.68013
0.28224 0.2153 0.69854
0.37486 0.21167 0.71152
0.49159 0.2024 0.7242
0.61194 0.20206 0.72319
0.76216 0.22202 0.73339
0.89626 0.24215 0.77522
0.98698 0.24226 0.80387
1 0.25972 0.80859
0.18229 0.37212 0.67746
0.27582 0.3609 0.70397
0.36612 0.35237 0.73077
0.47775 0.35063 0.75397
0.61049 0.34334 0.75078
0.77959 0.34509 0.74836
0.899 0.34605 0.78727
1 0.3678 0.80213
1 0.41103 0.8033
0.17433 0.4795 0.66916
0.25947 0.47712 0.69456
0.3553 0.47042 0.72591
0.48334 0.46999 0.76106
0.60292 0.47338 0.75982
0.76565 0.44426 0.7501
0.90326 0.43295 0.78214
1 0.46935 0.78665
1 0.52047 0.79802
0.17239 0.59039 0.66634
0.26369 0.59312 0.69529
0.36928 0.60837 0.72829
0.4857 0.61169 0.756
0.59593 0.60301 0.7564
0.72488 0.58618 0.76173
0.90061 0.55085 0.78851
1 0.57128 0.78992
1 0.62285 0.80495
0.17297 0.75766 0.67924
0.27815 0.75721 0.72313
0.37799 0.75266 0.75883
0.48279 0.75153 0.77652
0.59835 0.75839 0.78276
0.70197 0.75243 0.81445
0.87582 0.75299 0.8392
1 0.75206 0.82192
1 0.76194 0.82896
0.16665 0.91827 0.70088
0.26418 0.90859 0.74125
0.37735 0.90183 0.7803
0.50855 0.90988 0.80298
0.60856 0.91705 0.81789
0.70537 0.91956 0.84961
0.90184 0.94442 0.88485
1 0.95363 0.88235
1 0.94477 0.86418
0.15662 1 0.71474
0.25988 1 0.74923
0.37862 1 0.78495
0.51729 1 0.82205
0.62259 1 0.84997
0.72913 1 0.86924
0.92067 1 0.887
1 1 0.8952
1 1 0.87555
0.15606 1 0.71955
0.25155 1 0.74953
0.37455 1 0.79018
0.52484 1 0.83046
0.62581 1 0.86132
0.7577 1 0.87429
0.9376 1 0.88014
1 1 0.8842
1 1 0.86435
0.22384 0.10743 0.75712
0.30133 0.10081 0.76422
0.39611 0.096278 0.77586
0.50116 0.10263 0.78496
0.61726 0.11546 0.82463
0.76425 0.12706 0.87314
0.90747 0.14398 0.88418
1 0.15075 0.90006
1 0.15352 0.92501
0.21925 0.22742 0.76939
0.29968 0.22886 0.77906
0.39181 0.22729 0.79153
0.50354 0.21912 0.80969
0.6196 0.21568 0.83894
0.78557 0.23928 0.8807
0.91526 0.25404 0.89288
1 0.25355 0.91366
1 0.26381 0.93403
0.21543 0.36156 0.7689
0.30319 0.35624 0.78632
0.39256 0.35674 0.80426
0.49383 0.35994 0.82456
0.61532 0.35341 0.84536
0.79877 0.35188 0.87779
0.92442 0.3594 0.89977
1 0.37636 0.93188
1 0.39608 0.93675
0.20535 0.48014 0.76348
0.29102 0.47778 0.78376
0.39525 0.47558 0.80975
0.50221 0.47886 0.83573
0.60009 0.47725 0.84809
0.79203 0.44601 0.87776
0.93699 0.45047 0.91644
1 0.4721 0.9434
1 0.52211 0.92963
0.20598 0.60486 0.78412
0.30529 0.61922 0.80672
0.40246 0.62865 0.8293
0.49571 0.61961 0.8509
0.5929 0.61415 0.86056
0.76629 0.61812 0.90095
0.93145 0.58606 0.96161
1 0.59565 0.97513
1 0.63426 0.94872
0.22122 0.78026 0.81849
0.3162 0.77572 0.8374
0.39752 0.77105 0.85271
0.50216 0.77398 0.8721
0.61679 0.78331 0.89536
0.75374 0.78702 0.94835
0.90705 0.7979 1
1 0.79742 1
1 0.78474 0.97791
0.20565 0.92471 0.83329
0.30701 0.91652 0.85829
0.41013 0.92009 0.88234
0.52539 0.9333 0.91441
0.62506 0.94076 0.9284
0.76137 0.93835 0.98613
0.92523 0.95266 1
1 0.97156 1
1 0.9583 0.99337
0.20068 1 0.82872
0.30693 1 0.85684
0.42105 1 0.90036
0.53757 1 0.94465
0.63503 1 0.95194
0.75967 1 0.98846
0.9411 1 1
1 1 1
1 1 0.98862
0.19745 1 0.82329
0.30312 1 0.86175
0.41997 1 0.91317
0.54056 1 0.95675
0.64158 1 0.96688
0.76411 1 0.99025
0.94539 1 1
1 1 0.99723
1 1 0.97328
0.22637 0.10804 0.81883
0.31007 0.10238 0.82574
0.40426 0.099126 0.83691
0.51089 0.10812 0.85628
0.63254 0.12107 0.9107
0.77856 0.13219 0.96115
0.90924 0.15108 0.99229
1 0.15684 1
1 0.15905 1
0.22582 0.23214 0.82892
0.30809 0.23512 0.83645
0.40124 0.23326 0.84822
0.51676 0.22458 0.86764
0.63775 0.21995 0.91342
0.80046 0.24821 0.97298
0.91592 0.26123 1
1 0.26317 1
1 0.27302 1
0.22797 0.35744 0.82781
0.31404 0.35571 0.8408
0.40227 0.35904 0.85351
0.5053 0.36318 0.86656
0.64176 0.3516 0.90508
0.81761 0.35374 0.97343
0.93082 0.36921 1
1 0.39013 1
1 0.40124 1
0.21652 0.48682 0.83295
0.30673 0.48438 0.84705
0.41097 0.48469 0.86663
0.51006 0.48941 0.87899
0.61703 0.48158 0.90745
0.82354 0.45778 0.99049
0.95137 0.46888 1
1 0.4872 1
1 0.52083 1
0.22339 0.62312 0.86935
0.32002 0.63497 0.88294
0.41402 0.63744 0.89163
0.49986 0.62877 0.90793
0.60813 0.6317 0.94186
0.80233 0.63435 1
0.95192 0.60647 1
1 0.61411 1
1 0.64451 1
0.23424 0.78977 0.89968
0.3224 0.78578 0.90623
0.4096 0.78498 0.91643
0.5168 0.79353 0.94689
0.6387 0.80144 0.9926
0.78629 0.81101 1
0.93357 0.81483 1
1 0.80701 1
1 0.7947 1
0.22348 0.92366 0.91092
0.32479 0.92326 0.92772
0.43044 0.93505 0.95338
0.53613 0.94709 0.98894
0.63774 0.94956 1
0.79581 0.94322 1
0.94136 0.9578 1
1 0.96468 1
1 0.95235 1
0.2205 1 0.90495
0.33666 1 0.93396
0.44547 1 0.98016
0.54709 1 1
0.64033 1 1
0.79138 1 1
0.95212 1 1
1 1 1
1 1 1
0.22125 1 0.8987
0.33743 1 0.9405
0.44436 1 0.98776
0.55144 1 1
0.64272 1 1
0.78655 1 1
0.95435 1 1
1 1 1
1 1 1
0.22861 0.10885 0.89339
0.31787 0.10443 0.89951
0.41422 0.10174 0.9102
0.53048 0.11183 0.94439
0.65685 0.12393 0.99667
0.80973 0.14451 1
0.92148 0.16191 1
1 0.16166 1
1 0.16466 1
0.22965 0.23542 0.90046
0.31534 0.23849 0.90591
0.40987 0.23519 0.9144
0.53449 0.22237 0.93966
0.67393 0.22459 0.99349
0.8311 0.258 1
0.92337 0.2637 1
1 0.26746 1
1 0.28382 1
0.23422 0.35819 0.90605
0.32135 0.35803 0.91031
0.40727 0.36198 0.91401
0.52089 0.3629 0.92754
0.68587 0.35276 0.98856
0.84598 0.35947 1
0.94096 0.37557 1
1 0.40206 1
1 0.41225 1
0.22455 0.49813 0.92259
0.31736 0.4984 0.93203
0.41919 0.5017 0.93718
0.51883 0.50547 0.94288
0.65706 0.49229 1
0.85788 0.48109 1
0.96736 0.4907 1
1 0.50755 1
1 0.53504 1
0.23688 0.6407 0.96177
0.32972 0.64731 0.96876
0.41642 0.64457 0.97516
0.50991 0.64168 0.98721
0.64975 0.65795 1
0.83447 0.64375 1
0.96804 0.61748 1
1 0.62687 1
1 0.64898 1
0.23984 0.79501 0.99067
0.32667 0.79305 0.99779
0.42331 0.80063 1
0.53726 0.81664 1
0.67034 0.82353 1
0.80987 0.82775 1
0.95364 0.82215 1
1 0.80858 1
1 0.78811 1
0.23906 0.92666 1
0.3412 0.93544 1
0.45217 0.95243 1
0.55017 0.96144 1
0.66451 0.95592 1
0.81472 0.94935 1
0.95585 0.96066 1
1 0.95372 1
1 0.9354 1
0.24406 1 1
0.36108 1 1
0.46815 1 1
0.5585 1 1
0.65503 1 1
0.81564 1 1
0.96264 1 1
1 1 1
1 1 1
0.25045 1 0.99712
0.36726 1 1
0.46996 1 1
0.56023 1 1
0.65073 1 1
0.81134 1 1
0.96138 1 1
1 1 1
1 1 1
